;FLAVOR:UltiGCode
;TIME:767
;MATERIAL:734
;MATERIAL2:0
;NOZZLE_DIAMETER:0.4
;MINX:46.2
;MINY:55.2
;MINZ:0.3
;MAXX:73.8
;MAXY:64.8
;MAXZ:8
;Generated with Cura_SteamEngine 4.5.0
M82 ;absolute extrusion mode

G92 E0
G92 E0
G10
;LAYER_COUNT:78
;LAYER:0
M107
;MESH:pin_1.stl
G0 F3600 X50.031 Y61.466 Z0.3
;TYPE:WALL-INNER
G11
G1 F1800 X50.485 Y61.207 E0.06272
G1 X50.828 Y60.814 E0.12532
G1 X51.016 Y60.344 E0.18606
G1 X51.055 Y59.966 E0.23166
G1 X50.966 Y59.469 E0.29225
G1 X50.707 Y59.015 E0.35497
G1 X50.314 Y58.672 E0.41757
G1 X49.829 Y58.477 E0.4803
G1 X49.308 Y58.454 E0.54288
G1 X48.809 Y58.603 E0.60537
G1 X48.386 Y58.91 E0.66809
G1 X48.088 Y59.34 E0.73087
G1 X47.949 Y59.845 E0.79372
G1 X47.986 Y60.363 E0.85604
G1 X48.19 Y60.843 E0.91863
G1 X48.543 Y61.229 E0.9814
G1 X49.001 Y61.477 E1.0439
G1 X49.517 Y61.558 E1.10658
G1 X50.031 Y61.466 E1.16924
G0 F3600 X50.065 Y61.56
G0 X60.155 Y62.389
G0 X61.287 Y62.019
G0 X62.102 Y61.148
G0 X62.455 Y59.996
G0 X62.355 Y59.996
G1 F1800 X62.279 Y59.41 E1.24014
G1 X62.061 Y58.86 E1.31114
G1 X61.713 Y58.384 E1.3819
G1 X61.256 Y58.008 E1.45291
G1 X60.723 Y57.759 E1.52351
G1 X60.142 Y57.65 E1.59444
G1 X59.553 Y57.688 E1.66527
G1 X58.992 Y57.873 E1.73616
G1 X58.496 Y58.19 E1.8068
G1 X58.092 Y58.619 E1.87751
G1 X57.809 Y59.139 E1.94855
G1 X57.664 Y59.711 E2.01936
G1 X57.665 Y60.3 E2.09004
G1 X57.813 Y60.872 E2.16094
G1 X58.098 Y61.389 E2.23179
G1 X58.504 Y61.818 E2.30266
G1 X59.003 Y62.133 E2.37348
G1 X59.563 Y62.314 E2.4441
G1 X60.153 Y62.35 E2.51503
G1 X60.734 Y62.238 E2.58604
G1 X61.266 Y61.986 E2.65668
G1 X61.72 Y61.608 E2.72757
G1 X62.067 Y61.129 E2.79854
G1 X62.278 Y60.59 E2.868
G1 X62.355 Y59.996 E2.93988
G0 F3600 X62.455 Y59.996
G0 X70.517 Y61.597
G0 X71.031 Y61.466
G1 F1800 X71.485 Y61.207 E3.0026
G1 X71.828 Y60.814 E3.0652
G1 X72.016 Y60.344 E3.12594
G1 X72.055 Y59.966 E3.17154
G1 X71.966 Y59.469 E3.23213
G1 X71.707 Y59.015 E3.29485
G1 X71.314 Y58.672 E3.35745
G1 X70.829 Y58.477 E3.42018
G1 X70.308 Y58.454 E3.48276
G1 X69.809 Y58.603 E3.54525
G1 X69.386 Y58.91 E3.60797
G1 X69.088 Y59.34 E3.67075
G1 X68.949 Y59.845 E3.7336
G1 X68.986 Y60.363 E3.79592
G1 X69.19 Y60.843 E3.85851
G1 X69.543 Y61.229 E3.92128
G1 X70.001 Y61.477 E3.98378
G1 X70.517 Y61.558 E4.04646
G1 X71.031 Y61.466 E4.10912
G0 F3600 X71.065 Y61.56
G0 X73.308 Y62.714
G0 X73.4 Y62.752
G1 F1800 X71.752 Y64.4 E4.38879
G1 X48.248 Y64.4 E7.20927
G1 X46.6 Y62.752 E7.48895
G1 X46.6 Y57.248 E8.14943
G1 X48.248 Y55.6 E8.4291
G1 X71.752 Y55.6 E11.24958
G1 X73.4 Y57.248 E11.52926
G1 X73.4 Y62.752 E12.18974
G0 F3600 X73.8 Y62.918
;TYPE:WALL-OUTER
G1 F1800 X71.918 Y64.8 E12.50912
G1 X48.082 Y64.8 E15.36944
G1 X46.2 Y62.918 E15.68883
G1 X46.2 Y57.082 E16.38915
G1 X48.082 Y55.2 E16.70853
G1 X71.918 Y55.2 E19.56885
G1 X73.8 Y57.082 E19.88824
G1 X73.8 Y62.918 E20.58856
G0 F3600 X73.659 Y63.059
G0 X73.306 Y62.706
G0 X71.14 Y61.518
G0 X70.893 Y61.084
G1 F1800 X71.228 Y60.893 E20.63483
G1 X71.482 Y60.602 E20.68119
G1 X71.624 Y60.248 E20.72696
G1 X71.651 Y59.981 E20.75916
G1 X71.584 Y59.607 E20.80475
G1 X71.393 Y59.272 E20.85103
G1 X71.102 Y59.018 E20.89738
G1 X70.743 Y58.874 E20.9438
G1 X70.358 Y58.857 E20.99004
G1 X69.989 Y58.967 E21.03625
G1 X69.676 Y59.194 E21.08265
G1 X69.456 Y59.512 E21.12905
G1 X69.353 Y59.885 E21.17548
G1 X69.38 Y60.268 E21.22156
G1 X69.531 Y60.624 E21.26796
G1 X69.792 Y60.909 E21.31434
G1 X70.131 Y61.092 E21.36056
G1 X70.513 Y61.152 E21.40697
G1 X70.893 Y61.084 E21.45329
G0 F3600 X71.067 Y60.985
G0 X71.314 Y61.419
G0 X70.517 Y61.597
G0 X62.447 Y60.06
G0 X61.952 Y59.996
G1 F1800 X61.889 Y59.511 E21.51198
G1 X61.708 Y59.055 E21.57085
G1 X61.42 Y58.661 E21.62942
G1 X61.041 Y58.349 E21.68832
G1 X60.599 Y58.143 E21.74684
G1 X60.118 Y58.052 E21.80559
G1 X59.63 Y58.084 E21.86427
G1 X59.165 Y58.237 E21.92302
G1 X58.753 Y58.5 E21.98167
G1 X58.419 Y58.856 E22.04025
G1 X58.184 Y59.286 E22.09905
G1 X58.064 Y59.76 E22.15773
G1 X58.065 Y60.249 E22.21641
G1 X58.188 Y60.723 E22.27517
G1 X58.424 Y61.151 E22.33382
G1 X58.76 Y61.507 E22.39256
G1 X59.174 Y61.768 E22.45129
G1 X59.638 Y61.918 E22.50981
G1 X60.127 Y61.948 E22.5686
G1 X60.608 Y61.855 E22.62739
G1 X61.049 Y61.646 E22.68595
G1 X61.426 Y61.333 E22.74475
G1 X61.713 Y60.936 E22.80353
G1 X61.888 Y60.49 E22.86103
G1 X61.952 Y59.996 E22.9208
G0 F3600 X61.927 Y59.798
G0 X62.422 Y59.735
G0 X62.316 Y60.599
G0 X61.749 Y61.635
G0 X60.746 Y62.276
G0 X50.14 Y61.518
G0 X49.893 Y61.084
G1 F1800 X50.228 Y60.893 E22.96708
G1 X50.482 Y60.602 E23.01343
G1 X50.624 Y60.248 E23.0592
G1 X50.651 Y59.981 E23.0914
G1 X50.584 Y59.607 E23.137
G1 X50.393 Y59.272 E23.18327
G1 X50.102 Y59.018 E23.22962
G1 X49.743 Y58.874 E23.27604
G1 X49.358 Y58.857 E23.32228
G1 X48.989 Y58.967 E23.36849
G1 X48.676 Y59.194 E23.41489
G1 X48.456 Y59.512 E23.46129
G1 X48.353 Y59.885 E23.50773
G1 X48.38 Y60.268 E23.5538
G1 X48.531 Y60.624 E23.6002
G1 X48.792 Y60.909 E23.64658
G1 X49.131 Y61.092 E23.69281
G1 X49.513 Y61.152 E23.73921
G1 X49.893 Y61.084 E23.78553
G0 F3600 X50.067 Y60.985
G0 X50.735 Y61.513
;TYPE:SKIN
G1 F1800 X51.165 Y61.021 E23.86394
G1 X51.398 Y60.438 E23.93928
G1 X51.449 Y59.951 E23.99804
G1 X51.338 Y59.334 E24.07327
G1 X51.013 Y58.765 E24.15191
G1 X50.521 Y58.335 E24.23032
G1 X49.913 Y58.091 E24.30893
G1 X49.259 Y58.062 E24.38749
G1 X48.634 Y58.248 E24.46574
G1 X48.103 Y58.633 E24.54445
G1 X47.729 Y59.172 E24.62317
G1 X47.555 Y59.806 E24.70207
G1 X47.602 Y60.456 E24.78027
G1 X47.857 Y61.057 E24.85861
G1 X48.299 Y61.541 E24.93727
G1 X48.874 Y61.852 E25.01571
G1 X49.521 Y61.954 E25.09431
G1 X50.166 Y61.838 E25.17295
G1 X50.735 Y61.513 E25.25159
G0 F3600 X48.408 Y64.01
G1 F1800 X46.99 Y62.592 E25.49223
G1 X46.99 Y57.408 E26.11431
G1 X48.408 Y55.99 E26.35495
G1 X71.592 Y55.99 E29.13703
G1 X73.01 Y57.408 E29.37767
G1 X73.01 Y62.592 E29.99975
G1 X71.592 Y64.01 E30.2404
G1 X48.408 Y64.01 E33.02248
G0 F3600 X57.275 Y60.35
G1 F1800 X57.448 Y61.017 E33.10517
G1 X57.78 Y61.621 E33.18787
G1 X58.254 Y62.122 E33.27064
G1 X58.837 Y62.489 E33.3533
G1 X59.491 Y62.7 E33.43577
G1 X60.178 Y62.742 E33.51836
G1 X60.857 Y62.612 E33.60132
G1 X61.478 Y62.317 E33.68382
G1 X62.007 Y61.877 E33.76639
G1 X62.412 Y61.318 E33.84923
G1 X62.658 Y60.688 E33.93038
G1 X62.749 Y59.996 E34.01414
G1 X62.659 Y59.312 E34.09693
G1 X62.406 Y58.671 E34.17962
G1 X61.999 Y58.115 E34.26231
G1 X61.466 Y57.675 E34.34525
G1 X60.844 Y57.385 E34.4276
G1 X60.166 Y57.258 E34.51037
G1 X59.479 Y57.302 E34.59298
G1 X58.823 Y57.518 E34.67586
G1 X58.245 Y57.888 E34.75821
G1 X57.774 Y58.389 E34.84073
G1 X57.443 Y58.995 E34.92359
G1 X57.274 Y59.663 E35.00628
G1 X57.275 Y60.35 E35.08872
G0 F3600 X58.066 Y61.412
G0 X58.987 Y62.169
G0 X60.155 Y62.389
G0 X68.555 Y59.806
G1 F1800 X68.602 Y60.456 E35.16692
G1 X68.857 Y61.057 E35.24526
G1 X69.299 Y61.541 E35.32392
G1 X69.874 Y61.852 E35.40236
G1 X70.521 Y61.954 E35.48096
G1 X71.166 Y61.838 E35.55961
G1 X71.735 Y61.513 E35.63824
G1 X72.165 Y61.021 E35.71665
G1 X72.398 Y60.438 E35.79199
G1 X72.449 Y59.951 E35.85075
G1 X72.338 Y59.334 E35.92598
G1 X72.013 Y58.765 E36.00461
G1 X71.521 Y58.335 E36.08302
G1 X70.913 Y58.091 E36.16164
G1 X70.259 Y58.062 E36.24019
G1 X69.634 Y58.248 E36.31845
G1 X69.103 Y58.633 E36.39715
G1 X68.729 Y59.172 E36.47588
G1 X68.555 Y59.806 E36.55477
G0 F3600 X71.443 Y56.17
G1 F1800 X72.829 Y57.555 E36.7899
G0 F3600 X72.829 Y58.121
G1 F1800 X70.878 Y56.17 E37.12099
G0 F3600 X70.312 Y56.17
G1 F1800 X72.829 Y58.687 E37.54814
G0 F3600 X72.829 Y59.252
G1 F1800 X69.746 Y56.17 E38.07126
G0 F3600 X69.181 Y56.17
G1 F1800 X70.922 Y57.911 E38.36672
G0 F3600 X70.329 Y57.884
G1 F1800 X68.615 Y56.17 E38.65759
G0 F3600 X68.049 Y56.17
G1 F1800 X69.868 Y57.989 E38.96629
G0 F3600 X69.461 Y58.148
G1 F1800 X67.484 Y56.17 E39.30188
G0 F3600 X66.918 Y56.17
G1 F1800 X69.133 Y58.385 E39.67778
G0 F3600 X68.855 Y58.672
G1 F1800 X66.352 Y56.17 E40.10247
G0 F3600 X65.787 Y56.17
G1 F1800 X68.623 Y59.006 E40.58375
G0 F3600 X68.472 Y59.421
G1 F1800 X65.221 Y56.17 E41.13546
G0 F3600 X64.655 Y56.17
G1 F1800 X68.38 Y59.895 E41.76762
G0 F3600 X68.427 Y60.507
G1 F1800 X64.09 Y56.17 E42.50363
G0 F3600 X63.524 Y56.17
G1 F1800 X71.183 Y63.829 E43.80341
G0 F3600 X71.633 Y63.713
G1 F1800 X69.969 Y62.05 E44.08571
G0 F3600 X70.606 Y62.121
G1 F1800 X71.916 Y63.431 E44.30803
G0 F3600 X72.199 Y63.148
G1 F1800 X71.086 Y62.035 E44.49691
G0 F3600 X71.482 Y61.865
G1 F1800 X72.481 Y62.865 E44.66653
G0 F3600 X72.764 Y62.582
G1 F1800 X71.842 Y61.659 E44.82308
G0 F3600 X72.107 Y61.359
G1 F1800 X72.829 Y62.081 E44.94561
G0 F3600 X72.829 Y61.515
G1 F1800 X72.351 Y61.037 E45.02673
G0 F3600 X72.512 Y60.632
G1 F1800 X72.829 Y60.949 E45.08053
G0 F3600 X72.829 Y60.384
G1 F1800 X72.607 Y60.162 E45.1182
G0 F3600 X72.829 Y59.818
G1 F1800 X72.558 Y59.547 E45.16419
G0 F3600 X70.617 Y63.829
G1 F1800 X62.958 Y56.17 E46.46397
G0 F3600 X62.392 Y56.17
G1 F1800 X70.051 Y63.829 E47.76374
G0 F3600 X69.485 Y63.829
G1 F1800 X61.827 Y56.17 E49.06343
G0 F3600 X61.261 Y56.17
G1 F1800 X68.92 Y63.829 E50.36321
G0 F3600 X68.354 Y63.829
G1 F1800 X60.695 Y56.17 E51.66298
G0 F3600 X60.13 Y56.17
G1 F1800 X61.41 Y57.45 E51.88021
G1 X61.48 Y57.52
G0 F3600 X60.538 Y57.144
G1 F1800 X59.564 Y56.17 E52.0455
G0 F3600 X58.998 Y56.17
G1 F1800 X59.921 Y57.093 E52.20214
G0 F3600 X59.4 Y57.137
G1 F1800 X58.433 Y56.17 E52.36624
G0 F3600 X57.867 Y56.17
G1 F1800 X58.974 Y57.277 E52.55411
G0 F3600 X58.586 Y57.455
G1 F1800 X57.301 Y56.17 E52.77218
G0 F3600 X56.736 Y56.17
G1 F1800 X58.241 Y57.675 E53.02759
G0 F3600 X57.945 Y57.945
G1 F1800 X56.17 Y56.17 E53.32881
G0 F3600 X55.604 Y56.17
G1 F1800 X57.671 Y58.237 E53.6796
G0 F3600 X57.459 Y58.59
G1 F1800 X55.039 Y56.17 E54.09028
G0 F3600 X54.473 Y56.17
G1 F1800 X57.265 Y58.962 E54.5641
G0 F3600 X57.151 Y59.413
G1 F1800 X53.907 Y56.17 E55.11454
G0 F3600 X53.342 Y56.17
G1 F1800 X57.094 Y59.923 E55.75136
G0 F3600 X57.134 Y60.529
G1 F1800 X52.776 Y56.17 E56.49102
G0 F3600 X52.21 Y56.17
G1 F1800 X57.472 Y61.432 E57.38402
G1 X57.542 Y61.502
G0 F3600 X58.578 Y62.538
G1 F1800 X59.869 Y63.829 E57.60311
G0 F3600 X60.435 Y63.829
G1 F1800 X59.485 Y62.879 E57.76433
G0 F3600 X60.087 Y62.916
G1 F1800 X61 Y63.829 E57.91927
G0 F3600 X61.566 Y63.829
G1 F1800 X60.584 Y62.846 E58.086
G0 F3600 X61.031 Y62.728
G1 F1800 X62.132 Y63.829 E58.27285
G0 F3600 X62.697 Y63.829
G1 F1800 X61.415 Y62.546 E58.4905
G0 F3600 X61.755 Y62.32
G1 F1800 X63.263 Y63.829 E58.7465
G0 F3600 X63.829 Y63.829
G1 F1800 X62.064 Y62.064 E59.04603
G0 F3600 X62.318 Y61.752
G1 F1800 X64.394 Y63.829 E59.39842
G0 F3600 X64.96 Y63.829
G1 F1800 X62.555 Y61.424 E59.80656
G0 F3600 X62.718 Y61.021
G1 F1800 X65.526 Y63.829 E60.2831
G0 F3600 X66.091 Y63.829
G1 F1800 X62.851 Y60.589 E60.83294
G0 F3600 X62.917 Y60.089
G1 F1800 X66.657 Y63.829 E61.46764
G0 F3600 X67.223 Y63.829
G1 F1800 X62.86 Y59.466 E62.20807
G1 X62.79 Y59.396
G0 F3600 X62.577 Y58.617
G1 F1800 X67.788 Y63.829 E63.09249
G1 X67.858 Y63.899
G0 F3600 X59.303 Y63.829
G1 F1800 X51.644 Y56.17 E64.39226
G0 F3600 X51.079 Y56.17
G1 F1800 X58.737 Y63.829 E65.69195
G0 F3600 X58.172 Y63.829
G1 F1800 X50.513 Y56.17 E66.99173
G0 F3600 X49.947 Y56.17
G1 F1800 X57.606 Y63.829 E68.29151
G0 F3600 X57.04 Y63.829
G1 F1800 X49.382 Y56.17 E69.5912
G0 F3600 X48.816 Y56.17
G1 F1800 X56.475 Y63.829 E70.89097
G0 F3600 X55.909 Y63.829
G1 F1800 X51.543 Y59.462 E71.63199
G0 F3600 X51.614 Y60.099
G1 F1800 X55.343 Y63.829 E72.26491
G0 F3600 X54.778 Y63.829
G1 F1800 X51.532 Y60.583 E72.81577
G0 F3600 X51.37 Y60.987
G1 F1800 X54.212 Y63.829 E73.29808
G0 F3600 X53.646 Y63.829
G1 F1800 X51.139 Y61.321 E73.72361
G0 F3600 X50.876 Y61.624
G1 F1800 X53.081 Y63.829 E74.09781
G0 F3600 X52.515 Y63.829
G1 F1800 X50.526 Y61.84 E74.43536
G0 F3600 X50.144 Y62.023
G1 F1800 X51.949 Y63.829 E74.74176
G0 F3600 X51.384 Y63.829
G1 F1800 X49.665 Y62.11 E75.03349
G0 F3600 X49.05 Y62.061
G1 F1800 X50.818 Y63.829 E75.33352
G0 F3600 X50.252 Y63.829
G1 F1800 X47.17 Y60.746 E75.85664
G0 F3600 X47.419 Y60.43
G1 F1800 X47.17 Y60.181 E75.8989
G0 F3600 X47.375 Y59.82
G1 F1800 X47.17 Y59.615 E75.93369
G0 F3600 X47.487 Y59.367
G1 F1800 X47.17 Y59.049 E75.98757
G0 F3600 X47.651 Y58.965
G1 F1800 X47.17 Y58.484 E76.0692
G0 F3600 X47.17 Y57.918
G1 F1800 X47.883 Y58.631 E76.1902
G0 F3600 X48.174 Y58.356
G1 F1800 X47.234 Y57.417 E76.34964
G0 F3600 X47.517 Y57.134
G1 F1800 X48.502 Y58.119 E76.5168
G0 F3600 X48.921 Y57.972
G1 F1800 X47.8 Y56.851 E76.70704
G0 F3600 X48.083 Y56.568
G1 F1800 X49.402 Y57.887 E76.93088
G0 F3600 X50.019 Y57.938
G1 F1800 X48.366 Y56.285 E77.2114
G1 X48.296 Y56.215
G0 F3600 X47.17 Y61.312
G1 F1800 X49.686 Y63.829 E77.63847
G0 F3600 X49.121 Y63.829
G1 F1800 X47.17 Y61.878 E77.96956
G0 F3600 X47.17 Y62.443
G1 F1800 X48.555 Y63.829 E78.20469
G1 X48.625 Y63.899
;MESH:NONMESH
G0 F600 X48.625 Y63.899 Z0.4
G0 F3600 X49.558 Y61.652
G0 X49.542 Y61.558
;TIME_ELAPSED:28.753866
;LAYER:1
M106 S255
;TYPE:WALL-INNER
;MESH:pin_1.stl
G1 F2700 X50.053 Y61.456 E78.22553
G1 X50.504 Y61.191 E78.24646
G1 X50.84 Y60.792 E78.26732
G1 X51.02 Y60.323 E78.28742
G1 X51.055 Y59.942 E78.30272
G1 X50.956 Y59.447 E78.32291
G1 X50.691 Y58.996 E78.34384
G1 X50.292 Y58.66 E78.3647
G1 X49.806 Y58.473 E78.38553
G1 X49.285 Y58.457 E78.40638
G1 X48.788 Y58.615 E78.42724
G1 X48.37 Y58.928 E78.44813
G1 X48.079 Y59.362 E78.46903
G1 X47.949 Y59.867 E78.48989
G1 X47.991 Y60.385 E78.51068
G1 X48.203 Y60.861 E78.53152
G1 X48.56 Y61.242 E78.5524
G1 X49.024 Y61.483 E78.57332
G1 X49.542 Y61.558 E78.59425
G0 F5400 X49.544 Y61.657
G0 X60.164 Y62.388
G0 X61.294 Y62.016
G0 X62.104 Y61.142
G0 X62.455 Y59.989
G0 X62.355 Y59.989
G1 F2700 X62.277 Y59.402 E78.61794
G1 X62.057 Y58.855 E78.64152
G1 X61.708 Y58.379 E78.66513
G1 X61.251 Y58.004 E78.68878
G1 X60.715 Y57.757 E78.71239
G1 X60.135 Y57.65 E78.73598
G1 X59.546 Y57.689 E78.75959
G1 X58.985 Y57.875 E78.78323
G1 X58.491 Y58.194 E78.80675
G1 X58.086 Y58.626 E78.83044
G1 X57.806 Y59.146 E78.85406
G1 X57.663 Y59.718 E78.87765
G1 X57.665 Y60.308 E78.90125
G1 X57.816 Y60.879 E78.92487
G1 X58.103 Y61.395 E78.94849
G1 X58.51 Y61.822 E78.97209
G1 X59.009 Y62.136 E78.99567
G1 X59.57 Y62.315 E79.01922
G1 X60.162 Y62.349 E79.04294
G1 X60.739 Y62.235 E79.06647
G1 X61.273 Y61.983 E79.09009
G1 X61.726 Y61.602 E79.11377
G1 X62.069 Y61.123 E79.13733
G1 X62.276 Y60.596 E79.15998
G1 X62.355 Y59.989 E79.18446
G0 F5400 X62.455 Y59.989
G0 X70.544 Y61.657
G0 X70.542 Y61.558
G1 F2700 X71.053 Y61.456 E79.20531
G1 X71.504 Y61.191 E79.22623
G1 X71.84 Y60.792 E79.2471
G1 X72.02 Y60.323 E79.26719
G1 X72.055 Y59.942 E79.28249
G1 X71.956 Y59.447 E79.30269
G1 X71.691 Y58.996 E79.32361
G1 X71.292 Y58.66 E79.34447
G1 X70.806 Y58.473 E79.3653
G1 X70.285 Y58.457 E79.38615
G1 X69.788 Y58.615 E79.40701
G1 X69.37 Y58.928 E79.4279
G1 X69.079 Y59.362 E79.4488
G1 X68.949 Y59.867 E79.46966
G1 X68.991 Y60.385 E79.49045
G1 X69.203 Y60.861 E79.51129
G1 X69.56 Y61.242 E79.53218
G1 X70.024 Y61.483 E79.55309
G1 X70.542 Y61.558 E79.57403
G0 F5400 X70.544 Y61.657
G0 X73.308 Y62.714
G0 X73.4 Y62.752
G1 F2700 X71.752 Y64.4 E79.66725
G1 X48.248 Y64.4 E80.60741
G1 X46.6 Y62.752 E80.70064
G1 X46.6 Y57.248 E80.9208
G1 X48.248 Y55.6 E81.01402
G1 X71.752 Y55.6 E81.95418
G1 X73.4 Y57.248 E82.04741
G1 X73.4 Y62.752 E82.26757
G0 F5400 X73.8 Y62.918
;TYPE:WALL-OUTER
G1 F1800 X71.918 Y64.8 E82.37403
G1 X48.082 Y64.8 E83.32747
G1 X46.2 Y62.918 E83.43393
G1 X46.2 Y57.082 E83.66737
G1 X48.082 Y55.2 E83.77383
G1 X71.918 Y55.2 E84.72727
G1 X73.8 Y57.082 E84.83374
G1 X73.8 Y62.918 E85.06718
G0 F5400 X73.659 Y63.059
G0 X73.306 Y62.706
G0 X69.574 Y61.361
G0 X69.805 Y60.919
G1 F1800 X70.148 Y61.097 E85.08263
G1 X70.531 Y61.152 E85.09811
G1 X70.909 Y61.077 E85.11353
G1 X71.242 Y60.881 E85.12898
G1 X71.491 Y60.586 E85.14442
G1 X71.627 Y60.232 E85.15959
G1 X71.651 Y59.964 E85.17035
G1 X71.577 Y59.591 E85.18557
G1 X71.381 Y59.258 E85.20102
G1 X71.086 Y59.009 E85.21646
G1 X70.726 Y58.871 E85.23189
G1 X70.341 Y58.859 E85.24729
G1 X69.973 Y58.976 E85.26274
G1 X69.664 Y59.207 E85.27817
G1 X69.449 Y59.528 E85.29362
G1 X69.353 Y59.902 E85.30907
G1 X69.384 Y60.285 E85.32444
G1 X69.541 Y60.637 E85.33986
G1 X69.805 Y60.919 E85.35531
G0 F5400 X69.982 Y61.011
