;FLAVOR:UltiGCode
;TIME:1221
;MATERIAL:1545
;MATERIAL2:0
;NOZZLE_DIAMETER:0.4
;MINX:50.2
;MINY:43.45
;MINZ:0.3
;MAXX:69.8
;MAXY:76.55
;MAXZ:5.5
;Generated with Cura_SteamEngine 4.5.0
M82 ;absolute extrusion mode

G92 E0
G92 E0
G10
;LAYER_COUNT:53
;LAYER:0
M107
;MESH:mpin_holder_1.stl
G0 F3600 X53.303 Y45.745 Z0.3
;TYPE:WALL-INNER
G11
G1 F1800 X53.028 Y46.271 E0.07123
G1 X52.957 Y46.858 E0.14218
G1 X53.105 Y47.431 E0.2132
G1 X53.449 Y47.914 E0.28435
G1 X53.948 Y48.238 E0.35575
G1 X54.527 Y48.36 E0.42675
G1 X55.112 Y48.264 E0.49789
G1 X55.623 Y47.963 E0.56906
G1 X55.989 Y47.497 E0.64017
G1 X56.163 Y46.932 E0.71111
G1 X56.124 Y46.356 E0.78039
G1 X55.877 Y45.818 E0.85143
G1 X55.451 Y45.405 E0.92263
G1 X54.903 Y45.176 E0.9939
G1 X54.311 Y45.16 E1.06496
G1 X53.755 Y45.358 E1.13579
G1 X53.303 Y45.745 E1.20719
G0 F3600 X53.225 Y45.683
G0 X52.926 Y46.8
G0 X55.374 Y56.094
G0 X55.472 Y56.079
G1 F1800 X55.624 Y56.673 E1.28077
G1 X55.948 Y57.433 E1.37991
G1 X56.269 Y57.943 E1.45222
G1 X56.81 Y58.568 E1.55142
G1 X57.272 Y58.956 E1.62382
G1 X57.979 Y59.384 E1.72299
G1 X58.538 Y59.614 E1.79553
G1 X59.343 Y59.803 E1.89475
G1 X59.942 Y59.852 E1.96687
G1 X60.768 Y59.788 E2.06629
G1 X61.355 Y59.648 E2.13871
G1 X62.12 Y59.334 E2.23794
G1 X62.635 Y59.022 E2.3102
G1 X63.267 Y58.49 E2.40933
G1 X63.663 Y58.036 E2.48162
G1 X64.102 Y57.334 E2.58098
G1 X64.34 Y56.78 E2.65333
G1 X64.543 Y55.978 E2.75261
G1 X64.6 Y55.379 E2.82481
G1 X64.55 Y54.552 E2.92423
G1 X64.418 Y53.963 E2.99667
G1 X64.117 Y53.195 E3.09565
G1 X63.814 Y52.674 E3.16798
G1 X63.29 Y52.033 E3.26733
G1 X62.842 Y51.631 E3.33956
G1 X62.149 Y51.182 E3.43865
G1 X61.598 Y50.934 E3.51115
G1 X60.798 Y50.719 E3.61056
G1 X60.202 Y50.653 E3.68252
G1 X59.373 Y50.69 E3.7821
G1 X58.783 Y50.811 E3.85437
G1 X58.008 Y51.101 E3.95367
G1 X57.483 Y51.397 E4.02599
G1 X56.834 Y51.91 E4.12526
G1 X56.426 Y52.352 E4.19745
G1 X55.965 Y53.038 E4.29663
G1 X55.709 Y53.585 E4.3691
G1 X55.481 Y54.382 E4.46858
G1 X55.405 Y54.987 E4.54175
G1 X55.472 Y56.079 E4.67303
G0 F3600 X55.374 Y56.094
G0 X55.366 Y54.986
G0 X55.672 Y53.571
G0 X56.395 Y52.328
G0 X65.225 Y45.683
G0 X65.303 Y45.745
G1 F1800 X65.028 Y46.271 E4.74426
G1 X64.957 Y46.858 E4.81521
G1 X65.105 Y47.431 E4.88623
G1 X65.449 Y47.914 E4.95739
G1 X65.948 Y48.238 E5.02878
G1 X66.527 Y48.36 E5.09979
G1 X67.112 Y48.264 E5.17093
G1 X67.623 Y47.963 E5.24209
G1 X67.989 Y47.497 E5.3132
G1 X68.163 Y46.932 E5.38414
G1 X68.124 Y46.356 E5.45342
G1 X67.877 Y45.818 E5.52446
G1 X67.451 Y45.405 E5.59566
G1 X66.903 Y45.176 E5.66693
G1 X66.311 Y45.16 E5.738
G1 X65.755 Y45.358 E5.80882
G1 X65.303 Y45.745 E5.88023
G0 F3600 X65.225 Y45.683
G0 X64.456 Y53.952
G0 X64.639 Y55.379
G0 X62.352 Y68.3
G0 X61.935 Y70.312
G0 X61.848 Y70.264
G1 F1800 X62.065 Y69.662 E5.95702
G1 X62.094 Y69.025 E6.03353
G1 X61.93 Y68.408 E6.11015
G1 X61.591 Y67.869 E6.18655
G1 X61.104 Y67.456 E6.26318
G1 X60.517 Y67.208 E6.33965
G1 X59.882 Y67.147 E6.4162
G1 X59.257 Y67.278 E6.49283
G1 X58.702 Y67.591 E6.56929
G1 X58.265 Y68.056 E6.64586
G1 X57.987 Y68.63 E6.7224
G1 X57.893 Y69.261 E6.79895
G1 X57.994 Y69.892 E6.87564
G1 X58.277 Y70.463 E6.95211
G1 X58.715 Y70.919 E7.02799
G1 X58.887 Y71.015 E7.05162
G1 X59.272 Y71.228 E7.10442
G1 X59.903 Y71.354 E7.18164
G1 X60.539 Y71.287 E7.25838
G1 X61.103 Y71.041 E7.33222
G1 X61.15 Y71.005 E7.33932
G1 X61.458 Y70.768 E7.38596
G1 X61.848 Y70.264 E7.46243
G0 F3600 X61.935 Y70.312
G0 X63.128 Y71.372
G0 X63.19 Y75.252
G0 X63.239 Y75.338
G1 F1800 X63.2 Y75.361 E7.46786
G1 X62.953 Y75.476 E7.50056
G1 X62.621 Y75.63 E7.54447
G1 X62.036 Y75.841 E7.6191
G1 X61.418 Y76.001 E7.69571
G1 X60.803 Y76.101 E7.77048
G1 X60.17 Y76.146 E7.84663
G1 X59.533 Y76.134 E7.92308
G1 X58.92 Y76.065 E7.99711
G1 X58.279 Y75.931 E8.07569
G1 X57.687 Y75.751 E8.14994
G1 X57.094 Y75.508 E8.22684
G1 X56.775 Y75.343 E8.26994
G1 X56.537 Y75.219 E8.30214
G1 X56.524 Y75.211 E8.30398
G1 X56.014 Y74.882 E8.3768
G1 X55.51 Y74.489 E8.4535
G1 X55.051 Y74.056 E8.52922
G1 X54.626 Y73.577 E8.60606
G1 X54.263 Y73.083 E8.67963
G1 X53.926 Y72.52 E8.75836
G1 X53.657 Y71.964 E8.83248
G1 X53.436 Y71.372 E8.90831
G1 X53.269 Y70.76 E8.98444
G1 X53.156 Y70.121 E9.06231
G1 X50.6 Y50.213 E11.47088
G1 X50.6 Y45.498 E12.03668
G1 X52.248 Y43.85 E12.31635
G1 X67.752 Y43.85 E14.17683
G1 X69.4 Y45.498 E14.45651
G1 X69.4 Y50.01 E14.99795
G1 X69.327 Y50.781 E15.09088
G1 X66.878 Y69.871 E17.40045
G1 X66.799 Y70.427 E17.46784
G1 X66.663 Y71.041 E17.54331
G1 X66.465 Y71.66 E17.6213
G1 X66.226 Y72.223 E17.69469
G1 X65.924 Y72.787 E17.77146
G1 X65.571 Y73.32 E17.84818
G1 X65.184 Y73.804 E17.92254
G1 X64.744 Y74.259 E17.9985
G1 X64.256 Y74.679 E18.07576
G1 X63.752 Y75.039 E18.15008
G1 X63.332 Y75.284 E18.20843
G1 X63.239 Y75.338 E18.22134
G0 F3600 X63.19 Y75.252
G0 X56.83 Y75.17
G0 X56.9 Y75.1
G1 F1800 X62.827 Y75.1 E18.93258
G1 X63.1 Y75.1 E18.96051
G1 X63.1 Y74.992 E18.97173
G1 X63.1 Y71.4 E19.40277
G1 X61.163 Y71.4 E19.63521
G1 X61.103 Y71.4 E19.64206
G1 X60.539 Y71.4 E19.68135
G1 X59.903 Y71.4 E19.69647
G1 X59.272 Y71.4 E19.71684
G1 X58.832 Y71.4 E19.75508
G1 X56.9 Y71.4 E19.98692
G1 X56.9 Y75.084 E20.429
G1 X56.9 Y75.1
G0 F3600 X57.3 Y74.7
;TYPE:WALL-OUTER
G1 F1800 X62.7 Y74.7 E21.077
G1 X62.7 Y71.8 E21.425
G1 X57.3 Y71.8 E22.073
G1 X57.3 Y74.7 E22.421
G0 F3600 X57.5 Y74.7
G0 X57.5 Y75.2
G0 X56.872 Y71.372
G0 X60.945 Y71.369
G0 X61.963 Y70.238
G0 X61.493 Y70.069
G1 F1800 X61.668 Y69.583 E22.48298
G1 X61.692 Y69.068 E22.54485
G1 X61.559 Y68.57 E22.6067
G1 X61.285 Y68.134 E22.6685
G1 X60.892 Y67.801 E22.73031
G1 X60.418 Y67.6 E22.79209
G1 X59.905 Y67.551 E22.85393
G1 X59.4 Y67.657 E22.91585
G1 X58.951 Y67.91 E22.9777
G1 X58.598 Y68.285 E23.0395
G1 X58.374 Y68.749 E23.10133
G1 X58.298 Y69.259 E23.1632
G1 X58.379 Y69.769 E23.22517
G1 X58.608 Y70.23 E23.28694
G1 X58.962 Y70.598 E23.34822
G1 X59.412 Y70.848 E23.40999
G1 X59.922 Y70.95 E23.4724
G1 X60.436 Y70.896 E23.53442
G1 X60.898 Y70.694 E23.59493
G1 X61.173 Y70.482 E23.6366
G1 X61.493 Y70.069 E23.69929
G0 F3600 X61.56 Y69.881
G0 X62.031 Y70.05
G0 X62.133 Y69.021
G0 X55.913 Y57.451
G0 X55.385 Y56.14
G0 X55.869 Y56.017
G1 F1800 X56.004 Y56.544 E23.76457
G1 X56.304 Y57.247 E23.85629
G1 X56.591 Y57.704 E23.92105
G1 X57.092 Y58.282 E24.01284
G1 X57.506 Y58.63 E24.07774
G1 X58.16 Y59.026 E24.16949
G1 X58.661 Y59.232 E24.23449
G1 X59.405 Y59.407 E24.32621
G1 X59.943 Y59.451 E24.39098
G1 X60.706 Y59.392 E24.48282
G1 X61.232 Y59.266 E24.54772
G1 X61.939 Y58.976 E24.63942
G1 X62.401 Y58.696 E24.70425
G1 X62.986 Y58.204 E24.79597
G1 X63.341 Y57.797 E24.86078
G1 X63.747 Y57.148 E24.95265
G1 X63.96 Y56.651 E25.01753
G1 X64.148 Y55.91 E25.10927
G1 X64.199 Y55.372 E25.17412
G1 X64.153 Y54.608 E25.26597
G1 X64.034 Y54.081 E25.3308
G1 X63.756 Y53.37 E25.42241
G1 X63.484 Y52.903 E25.48726
G1 X63 Y52.31 E25.57911
G1 X62.598 Y51.95 E25.64387
G1 X61.957 Y51.534 E25.73557
G1 X61.463 Y51.312 E25.80056
G1 X60.724 Y51.113 E25.8924
G1 X60.189 Y51.054 E25.95699
G1 X59.423 Y51.088 E26.049
G1 X58.894 Y51.197 E26.11381
G1 X58.177 Y51.465 E26.20567
G1 X57.707 Y51.73 E26.27041
G1 X57.107 Y52.204 E26.36217
G1 X56.741 Y52.601 E26.42697
G1 X56.314 Y53.235 E26.51869
G1 X56.085 Y53.726 E26.58371
G1 X55.874 Y54.462 E26.67558
G1 X55.807 Y55 E26.74064
G1 X55.869 Y56.017 E26.86291
G0 F3600 X55.918 Y56.21
G0 X55.434 Y56.333
G0 X52.918 Y46.86
G0 X53.18 Y45.767
G0 X53.622 Y45.999
G1 F1800 X53.416 Y46.392 E26.91615
G1 X53.363 Y46.831 E26.96922
G1 X53.474 Y47.259 E27.02228
G1 X53.731 Y47.62 E27.07545
G1 X54.103 Y47.862 E27.12871
G1 X54.536 Y47.953 E27.1818
G1 X54.973 Y47.881 E27.23495
G1 X55.355 Y47.656 E27.28815
G1 X55.629 Y47.308 E27.3413
G1 X55.759 Y46.885 E27.3944
G1 X55.73 Y46.456 E27.446
G1 X55.545 Y46.053 E27.49921
G1 X55.227 Y45.745 E27.55234
G1 X54.818 Y45.574 E27.60553
G1 X54.375 Y45.562 E27.65871
G1 X53.959 Y45.71 E27.7117
G1 X53.622 Y45.999 E27.76497
G0 F3600 X53.529 Y46.176
G0 X53.087 Y45.944
G0 X53.735 Y45.324
G0 X65.18 Y45.767
G0 X65.622 Y45.999
G1 F1800 X65.416 Y46.392 E27.81822
G1 X65.363 Y46.831 E27.87128
G1 X65.474 Y47.259 E27.92434
G1 X65.731 Y47.62 E27.97752
G1 X66.103 Y47.862 E28.03077
G1 X66.536 Y47.953 E28.08387
G1 X66.973 Y47.881 E28.13701
G1 X67.355 Y47.656 E28.19021
G1 X67.629 Y47.308 E28.24337
G1 X67.759 Y46.885 E28.29647
G1 X67.73 Y46.456 E28.34807
G1 X67.545 Y46.053 E28.40128
G1 X67.227 Y45.745 E28.4544
G1 X66.818 Y45.574 E28.5076
G1 X66.375 Y45.562 E28.56078
G1 X65.959 Y45.71 E28.61376
G1 X65.622 Y45.999 E28.66704
G0 F3600 X65.529 Y46.176
G0 X65.087 Y45.944
G0 X64.918 Y46.86
G0 X65.422 Y47.942
G0 X69.301 Y50.006
G0 X69.8 Y50.027
G1 F1800 X69.724 Y50.832 E28.76407
G1 X67.274 Y69.928 E31.07437
G1 X67.192 Y70.502 E31.14395
G1 X67.05 Y71.144 E31.22285
G1 X66.842 Y71.796 E31.30498
G1 X66.584 Y72.403 E31.38412
G1 X66.272 Y72.986 E31.46347
G1 X65.893 Y73.557 E31.54571
G1 X65.481 Y74.072 E31.62485
G1 X65.022 Y74.547 E31.70412
G1 X64.503 Y74.994 E31.78631
G1 X63.967 Y75.377 E31.86537
G1 X63.383 Y75.717 E31.94646
G1 X62.78 Y75.998 E32.02629
G1 X62.156 Y76.223 E32.10589
G1 X61.496 Y76.394 E32.1877
G1 X60.851 Y76.499 E32.26612
G1 X60.179 Y76.546 E32.34696
G1 X59.512 Y76.534 E32.42701
G1 X58.847 Y76.459 E32.50732
G1 X58.183 Y76.32 E32.58873
G1 X57.554 Y76.129 E32.66761
G1 X56.927 Y75.872 E32.74892
G1 X56.34 Y75.567 E32.8283
G1 X55.78 Y75.207 E32.90819
G1 X55.249 Y74.792 E32.98906
G1 X54.765 Y74.336 E33.06886
G1 X54.313 Y73.826 E33.15064
G1 X53.928 Y73.302 E33.22867
G1 X53.575 Y72.713 E33.31107
G1 X53.287 Y72.117 E33.3905
G1 X53.056 Y71.498 E33.46978
G1 X52.878 Y70.846 E33.55089
G1 X52.76 Y70.18 E33.63205
G1 X50.2 Y50.241 E36.04437
G1 X50.2 Y45.332 E36.63345
G1 X52.082 Y43.45 E36.95284
G1 X67.918 Y43.45 E38.85316
G1 X69.8 Y45.332 E39.17254
G1 X69.8 Y50.027 E39.73594
G0 F3600 X69.782 Y50.226
G0 X69.01 Y49.995
;TYPE:SKIN
G1 F1800 X68.941 Y50.732 E39.82477
G1 X66.492 Y69.816 E42.13363
G1 X66.414 Y70.367 E42.20041
G1 X66.289 Y70.932 E42.26985
G1 X66.1 Y71.521 E42.34408
G1 X65.876 Y72.05 E42.41302
G1 X65.589 Y72.587 E42.48608
G1 X65.257 Y73.089 E42.5583
G1 X64.89 Y73.547 E42.62873
G1 X64.481 Y73.97 E42.69934
G1 X64.016 Y74.371 E42.77302
G1 X63.49 Y74.74 E42.85013
G1 X63.49 Y71.01 E43.29773
G1 X61.764 Y71.01 E43.50485
G1 X62.194 Y70.454 E43.58919
G1 X62.451 Y69.738 E43.68048
G1 X62.486 Y68.982 E43.77129
G1 X62.291 Y68.25 E43.8622
G1 X61.889 Y67.61 E43.95289
G1 X61.311 Y67.12 E44.04382
G1 X60.614 Y66.826 E44.1346
G1 X59.86 Y66.753 E44.2255
G1 X59.118 Y66.909 E44.31649
G1 X58.459 Y67.281 E44.4073
G1 X57.94 Y67.832 E44.49813
G1 X57.61 Y68.513 E44.58894
G1 X57.499 Y69.263 E44.67992
G1 X57.618 Y70.012 E44.77093
G1 X57.954 Y70.69 E44.86173
G1 X58.262 Y71.01 E44.91503
G1 X56.51 Y71.01 E45.12527
G1 X56.51 Y74.738 E45.57263
G1 X56.245 Y74.566 E45.61054
G1 X55.75 Y74.181 E45.68579
G1 X55.339 Y73.793 E45.75362
G1 X54.926 Y73.327 E45.82834
G1 X54.594 Y72.874 E45.89573
G1 X54.265 Y72.326 E45.97243
G1 X54.016 Y71.809 E46.04129
G1 X53.806 Y71.249 E46.11306
G1 X53.65 Y70.676 E46.18433
G1 X53.54 Y70.053 E46.26024
G1 X50.99 Y50.196 E48.66265
G1 X50.99 Y45.658 E49.20721
G1 X52.408 Y44.24 E49.44785
G1 X67.592 Y44.24 E51.26993
G1 X69.01 Y45.658 E51.51058
G1 X69.01 Y49.995 E52.03102
G0 F3600 X67.884 Y48.262
G1 F1800 X68.34 Y47.681 E52.11965
G1 X68.557 Y46.977 E52.20805
G1 X68.508 Y46.258 E52.29453
G1 X68.201 Y45.588 E52.38297
G1 X67.669 Y45.074 E52.47173
G1 X66.987 Y44.788 E52.56048
G1 X66.249 Y44.768 E52.64907
G1 X65.556 Y45.015 E52.73736
G1 X64.993 Y45.498 E52.82637
G1 X64.65 Y46.154 E52.9152
G1 X64.561 Y46.884 E53.00345
G1 X64.746 Y47.599 E53.09208
G1 X65.174 Y48.201 E53.18071
G1 X65.796 Y48.605 E53.26972
G1 X66.518 Y48.756 E53.35823
G1 X67.247 Y48.637 E53.44687
G1 X67.884 Y48.262 E53.53557
G0 F3600 X64.47 Y53.025
G1 F1800 X64.136 Y52.451 E53.61526
G1 X63.573 Y51.762 E53.72204
G1 X63.08 Y51.321 E53.80141
G1 X62.336 Y50.839 E53.90779
G1 X61.729 Y50.565 E53.98771
G1 X60.87 Y50.335 E54.09442
G1 X60.215 Y50.263 E54.17349
G1 X59.325 Y50.302 E54.28039
G1 X58.675 Y50.435 E54.36001
G1 X57.843 Y50.746 E54.4666
G1 X57.265 Y51.072 E54.54623
G1 X56.568 Y51.623 E54.65285
G1 X56.12 Y52.11 E54.73225
G1 X55.624 Y52.845 E54.83866
G1 X55.342 Y53.448 E54.91854
G1 X55.097 Y54.304 E55.02538
G1 X55.013 Y54.975 E55.10653
G1 X55.085 Y56.14 E55.2466
G1 X55.253 Y56.798 E55.32809
G1 X55.601 Y57.614 E55.43454
G1 X55.955 Y58.175 E55.51415
G1 X56.535 Y58.847 E55.62067
G1 X57.044 Y59.274 E55.7004
G1 X57.803 Y59.733 E55.80684
G1 X58.419 Y59.986 E55.88675
G1 X59.282 Y60.189 E55.99313
G1 X59.942 Y60.244 E56.07261
G1 X60.829 Y60.174 E56.17938
G1 X61.475 Y60.02 E56.25907
G1 X62.296 Y59.683 E56.36557
G1 X62.863 Y59.34 E56.44509
G1 X63.542 Y58.769 E56.55155
G1 X63.977 Y58.27 E56.63099
G1 X64.449 Y57.515 E56.73784
G1 X64.711 Y56.905 E56.8175
G1 X64.929 Y56.045 E56.92397
G1 X64.992 Y55.385 E57.00353
G1 X64.938 Y54.497 E57.11028
G1 X64.792 Y53.848 E57.19011
G1 X64.47 Y53.025 E57.29616
G0 F3600 X63.172 Y51.872
G0 X56.557 Y46.977
G1 F1800 X56.508 Y46.258 E57.38264
G1 X56.201 Y45.588 E57.47108
G1 X55.669 Y45.074 E57.55985
G1 X54.987 Y44.788 E57.64859
G1 X54.249 Y44.768 E57.73719
G1 X53.556 Y45.015 E57.82547
G1 X52.993 Y45.498 E57.91448
G1 X52.65 Y46.154 E58.00332
G1 X52.561 Y46.884 E58.09156
G1 X52.746 Y47.599 E58.18019
G1 X53.174 Y48.201 E58.26883
G1 X53.796 Y48.605 E58.35783
G1 X54.518 Y48.756 E58.44634
G1 X55.247 Y48.637 E58.53498
G1 X55.884 Y48.262 E58.62368
G1 X56.34 Y47.681 E58.71231
G1 X56.557 Y46.977 E58.80072
G0 F3600 X66.305 Y45.121
G0 X68.552 Y45.925
G1 F1800 X68.829 Y46.202 E58.84772
G0 F3600 X68.714 Y46.652
G1 F1800 X68.829 Y46.768 E58.86732
G0 F3600 X68.68 Y47.184
G1 F1800 X68.829 Y47.333 E58.89261
G0 F3600 X68.546 Y47.616
G1 F1800 X68.829 Y47.899 E58.94064
G0 F3600 X68.337 Y47.972
G1 F1800 X68.829 Y48.465 E59.02422
G0 F3600 X68.829 Y49.03
G1 F1800 X68.089 Y48.29 E59.1498
G0 F3600 X67.77 Y48.537
G1 F1800 X68.829 Y49.596 E59.32952
G0 F3600 X68.815 Y50.148
G1 F1800 X67.414 Y48.746 E59.56736
G0 F3600 X66.965 Y48.863
G1 F1800 X68.766 Y50.664 E59.873
G0 F3600 X68.703 Y51.167
G1 F1800 X66.463 Y48.927 E60.25314
G0 F3600 X65.75 Y48.779
G1 F1800 X68.639 Y51.668 E60.74342
G0 F3600 X68.575 Y52.17
G1 F1800 X60.825 Y44.42 E62.05864
G0 F3600 X61.391 Y44.42
G1 F1800 X64.555 Y47.584 E62.59559
G0 F3600 X64.383 Y46.847
G1 F1800 X61.956 Y44.42 E63.00746
G0 F3600 X62.522 Y44.42
G1 F1800 X64.445 Y46.343 E63.33381
G0 F3600 X64.575 Y45.908
G1 F1800 X63.088 Y44.42 E63.58624
G0 F3600 X63.653 Y44.42
G1 F1800 X64.769 Y45.536 E63.77564
G0 F3600 X65.028 Y45.229
G1 F1800 X64.219 Y44.42 E63.91293
G0 F3600 X64.785 Y44.42
G1 F1800 X65.332 Y44.967 E64.00576
G0 F3600 X65.702 Y44.771
G1 F1800 X65.35 Y44.42 E64.06541
G0 F3600 X65.916 Y44.42
G1 F1800 X66.118 Y44.622 E64.09969
G0 F3600 X66.482 Y44.42
G1 F1800 X66.66 Y44.598 E64.1299
G0 F3600 X67.047 Y44.42
G1 F1800 X67.388 Y44.761 E64.18777
G0 F3600 X60.259 Y44.42
G1 F1800 X68.51 Y52.671 E65.58801
G0 F3600 X68.446 Y53.173
G1 F1800 X59.693 Y44.42 E67.07344
G0 F3600 X59.128 Y44.42
G1 F1800 X68.382 Y53.674 E68.6439
G0 F3600 X68.317 Y54.175
G1 F1800 X58.562 Y44.42 E70.29937
G0 F3600 X57.996 Y44.42
G1 F1800 X68.253 Y54.677 E72.04005
G0 F3600 X68.189 Y55.179
G1 F1800 X57.431 Y44.42 E73.86582
G0 F3600 X56.865 Y44.42
G1 F1800 X68.125 Y55.68 E75.77671
G0 F3600 X68.061 Y56.181
G1 F1800 X64.361 Y52.482 E76.40453
G1 X64.291 Y52.412
G0 F3600 X64.87 Y53.556
G1 F1800 X67.996 Y56.683 E76.93512
G0 F3600 X67.932 Y57.184
G1 F1800 X65.085 Y54.337 E77.41827
G0 F3600 X65.146 Y54.964
G1 F1800 X67.868 Y57.685 E77.88013
G0 F3600 X67.803 Y58.187
G1 F1800 X65.157 Y55.541 E78.32917
G0 F3600 X65.108 Y56.057
G1 F1800 X67.739 Y58.688 E78.77566
G0 F3600 X67.675 Y59.189
G1 F1800 X64.995 Y56.51 E79.23039
G0 F3600 X64.881 Y56.961
G1 F1800 X67.61 Y59.691 E79.6936
G0 F3600 X67.546 Y60.192
G1 F1800 X64.711 Y57.357 E80.17472
G0 F3600 X64.522 Y57.734
G1 F1800 X67.482 Y60.693 E80.67696
G0 F3600 X67.417 Y61.195
G1 F1800 X64.304 Y58.082 E81.20525
G0 F3600 X64.08 Y58.423
G1 F1800 X67.353 Y61.696 E81.7607
G0 F3600 X67.288 Y62.197
G1 F1800 X63.817 Y58.725 E82.34983
G0 F3600 X63.534 Y59.009
G1 F1800 X67.224 Y62.699 E82.97605
G0 F3600 X67.16 Y63.2
