;FLAVOR:UltiGCode
;TIME:1969
;MATERIAL:2157
;MATERIAL2:0
;NOZZLE_DIAMETER:0.4
;MINX:51.785
;MINY:45.7
;MINZ:0.3
;MAXX:67.35
;MAXY:74.3
;MAXZ:28
;Generated with Cura_SteamEngine 4.5.0
M82 ;absolute extrusion mode

G92 E0
G92 E0
G10
;LAYER_COUNT:278
;LAYER:0
M107
;MESH:holder_3.stl
G0 F3600 X55.248 Y68.881 Z0.3
;TYPE:WALL-INNER
G11
G1 F1800 X55.15 Y69.388 E0.06197
G1 X55.15 Y72.05 E0.38141
G1 X53.25 Y72.051 E0.60941
G1 X53.05 Y72.051 E0.63341
G1 X53.05 Y71.851 E0.64895
G1 X53.054 Y68.994 E0.99179
G1 X54.698 Y67.35 E1.27078
G1 X58.255 Y67.35 E1.69762
G1 X58.979 Y67.315 E1.7846
G1 X59.703 Y67.206 E1.87246
G1 X60.414 Y67.025 E1.9605
G1 X61.103 Y66.776 E2.04842
G1 X61.764 Y66.458 E2.13644
G1 X62.389 Y66.075 E2.2244
G1 X62.973 Y65.633 E2.31229
G1 X63.509 Y65.135 E2.40009
G1 X63.996 Y64.586 E2.48815
G1 X64.424 Y63.99 E2.5762
G1 X64.791 Y63.353 E2.66442
G1 X65.091 Y62.686 E2.75219
G1 X65.326 Y61.992 E2.84011
G1 X65.487 Y61.278 E2.92794
G1 X65.58 Y60.551 E3.01589
G1 X65.599 Y59.822 E3.1034
G1 X65.546 Y59.094 E3.19099
G1 X65.418 Y58.373 E3.27887
G1 X65.222 Y57.668 E3.36668
G1 X64.955 Y56.985 E3.45468
G1 X64.621 Y56.332 E3.54269
G1 X64.224 Y55.715 E3.63073
G1 X63.766 Y55.143 E3.71867
G1 X63.256 Y54.617 E3.80658
G1 X62.695 Y54.146 E3.89448
G1 X62.09 Y53.731 E3.98252
G1 X61.446 Y53.381 E4.07048
G1 X60.771 Y53.096 E4.1584
G1 X60.072 Y52.88 E4.2462
G1 X59.353 Y52.733 E4.33426
G1 X58.624 Y52.659 E4.42219
G1 X54.713 Y52.65 E4.89151
G1 X53.05 Y51 E5.17263
G1 X53.05 Y47.95 E5.53863
G1 X54.95 Y47.949 E5.76663
G1 X55.15 Y47.949 E5.79063
G1 X55.15 Y48.149 E5.80617
G1 X55.15 Y50.573 E6.09705
G1 X55.195 Y50.984 E6.14667
G1 X55.485 Y51.433 E6.21081
G1 X55.96 Y51.698 E6.27608
G1 X56.512 Y51.705 E6.34232
G1 X57.106 Y51.382 E6.42346
G1 X57.752 Y51.316 E6.50138
G1 X58.502 Y51.303 E6.5914
G1 X59.233 Y51.356 E6.67935
G1 X59.983 Y51.475 E6.77047
G1 X60.691 Y51.649 E6.85796
G1 X61.406 Y51.892 E6.94858
G1 X62.08 Y52.189 E7.03696
G1 X62.743 Y52.552 E7.12767
G1 X63.366 Y52.964 E7.2173
G1 X63.954 Y53.432 E7.30748
G1 X64.482 Y53.929 E7.39449
G1 X64.982 Y54.491 E7.48476
G1 X65.427 Y55.084 E7.57373
G1 X65.83 Y55.732 E7.6653
G1 X66.162 Y56.384 E7.7531
G1 X66.441 Y57.071 E7.84208
G1 X66.662 Y57.786 E7.93188
G1 X66.821 Y58.513 E8.02119
G1 X66.916 Y59.244 E8.10964
G1 X66.948 Y59.995 E8.19984
G1 X66.918 Y60.748 E8.29028
G1 X66.824 Y61.477 E8.37848
G1 X66.667 Y62.202 E8.4675
G1 X66.451 Y62.907 E8.55598
G1 X66.165 Y63.61 E8.64705
G1 X65.833 Y64.263 E8.73496
G1 X65.429 Y64.914 E8.8269
G1 X64.994 Y65.496 E8.91409
G1 X64.495 Y66.056 E9.0041
G1 X63.95 Y66.573 E9.09424
G1 X63.38 Y67.025 E9.18154
G1 X62.75 Y67.444 E9.27233
G1 X62.095 Y67.803 E9.36197
G1 X61.415 Y68.103 E9.45115
G1 X60.7 Y68.347 E9.54181
G1 X59.995 Y68.521 E9.62895
G1 X59.241 Y68.641 E9.72057
G1 X58.508 Y68.695 E9.80877
G1 X57.759 Y68.686 E9.89865
G1 X57.121 Y68.623 E9.97559
G1 X56.643 Y68.345 E10.04194
G1 X56.128 Y68.27 E10.10439
G1 X55.615 Y68.461 E10.17008
G1 X55.248 Y68.881 E10.23701
G0 F3600 X55.62 Y69.063
;TYPE:WALL-OUTER
G1 F1800 X55.55 Y69.426 E10.28138
G1 X55.55 Y72.45 E10.64426
G1 X52.85 Y72.451 E10.96826
G1 X52.65 Y72.451 E10.99226
G1 X52.65 Y72.251 E11.0078
G1 X52.654 Y68.828 E11.41856
G1 X54.532 Y66.95 E11.73726
G1 X58.245 Y66.95 E12.18282
G1 X58.939 Y66.916 E12.2662
G1 X59.624 Y66.813 E12.34933
G1 X60.297 Y66.642 E12.43265
G1 X60.948 Y66.407 E12.51571
G1 X61.572 Y66.106 E12.59884
G1 X62.163 Y65.744 E12.68201
G1 X62.716 Y65.326 E12.76519
G1 X63.223 Y64.855 E12.84824
G1 X63.683 Y64.336 E12.93146
G1 X64.087 Y63.773 E13.01461
G1 X64.434 Y63.171 E13.09799
G1 X64.718 Y62.54 E13.18103
G1 X64.94 Y61.883 E13.26425
G1 X65.093 Y61.208 E13.3473
G1 X65.181 Y60.52 E13.43054
G1 X65.199 Y59.831 E13.51325
G1 X65.149 Y59.144 E13.5959
G1 X65.028 Y58.462 E13.67902
G1 X64.842 Y57.795 E13.76212
G1 X64.59 Y57.149 E13.84532
G1 X64.274 Y56.532 E13.92851
G1 X63.899 Y55.949 E14.01169
G1 X63.466 Y55.408 E14.09485
G1 X62.983 Y54.91 E14.1781
G1 X62.453 Y54.465 E14.26114
G1 X61.881 Y54.073 E14.34435
G1 X61.272 Y53.742 E14.42753
G1 X60.634 Y53.472 E14.51066
G1 X59.973 Y53.268 E14.59368
G1 X59.293 Y53.129 E14.67696
G1 X58.603 Y53.059 E14.76019
G1 X54.548 Y53.05 E15.24679
G1 X52.65 Y51.167 E15.56762
G1 X52.65 Y47.55 E16.00166
G1 X55.35 Y47.549 E16.32566
G1 X55.55 Y47.549 E16.34966
G1 X55.55 Y47.749 E16.3652
G1 X55.55 Y50.551 E16.70144
G1 X55.582 Y50.846 E16.73705
G1 X55.767 Y51.132 E16.77792
G1 X56.067 Y51.299 E16.81912
G1 X56.413 Y51.304 E16.86065
G1 X56.985 Y50.992 E16.93884
G1 X57.728 Y50.916 E17.02846
G1 X58.513 Y50.903 E17.12267
G1 X59.276 Y50.958 E17.21447
G1 X60.061 Y51.082 E17.30984
G1 X60.811 Y51.267 E17.40254
G1 X61.546 Y51.517 E17.4957
G1 X62.259 Y51.831 E17.58919
G1 X62.954 Y52.211 E17.68424
G1 X63.596 Y52.636 E17.77663
G1 X64.214 Y53.127 E17.87135
G1 X64.773 Y53.654 E17.96354
G1 X65.291 Y54.236 E18.05704
G1 X65.758 Y54.859 E18.15047
G1 X66.177 Y55.532 E18.2456
G1 X66.528 Y56.221 E18.33839
G1 X66.817 Y56.933 E18.4306
G1 X67.05 Y57.688 E18.52542
G1 X67.216 Y58.447 E18.61865
G1 X67.315 Y59.209 E18.71086
G1 X67.349 Y59.995 E18.80527
G1 X67.317 Y60.781 E18.89966
G1 X67.219 Y61.544 E18.99198
G1 X67.056 Y62.296 E19.08431
G1 X66.824 Y63.052 E19.17921
G1 X66.531 Y63.773 E19.2726
G1 X66.183 Y64.459 E19.36491
G1 X65.764 Y65.132 E19.46004
G1 X65.298 Y65.756 E19.55349
G1 X64.787 Y66.33 E19.64572
G1 X64.215 Y66.873 E19.74036
G1 X63.612 Y67.351 E19.8327
G1 X62.948 Y67.792 E19.92835
G1 X62.28 Y68.159 E20.01981
G1 X61.555 Y68.478 E20.11486
G1 X60.82 Y68.729 E20.20806
G1 X60.071 Y68.914 E20.30064
G1 X59.286 Y69.039 E20.39603
G1 X58.521 Y69.095 E20.48807
G1 X57.737 Y69.086 E20.58216
G1 X56.995 Y69.012 E20.67164
G1 X56.509 Y68.73 E20.73907
G1 X56.172 Y68.681 E20.77993
G1 X55.849 Y68.801 E20.82128
G1 X55.62 Y69.063 E20.86304
G0 F3600 X55.583 Y69.259
G0 X54.76 Y69.351
;TYPE:SKIN
G1 F1800 X54.76 Y71.66 E21.14012
G1 X53.44 Y71.661 E21.29852
G1 X53.444 Y69.154 E21.59936
G1 X54.858 Y67.74 E21.83932
G1 X58.265 Y67.74 E22.24816
G1 X59.018 Y67.703 E22.33863
G1 X59.781 Y67.588 E22.43123
G1 X60.529 Y67.398 E22.52384
G1 X61.255 Y67.136 E22.61646
G1 X61.951 Y66.801 E22.70915
G1 X62.609 Y66.397 E22.8018
G1 X63.224 Y65.932 E22.89432
G1 X63.788 Y65.408 E22.9867
G1 X64.301 Y64.83 E23.07944
G1 X64.752 Y64.202 E23.17222
G1 X65.138 Y63.531 E23.26512
G1 X65.454 Y62.829 E23.3575
G1 X65.702 Y62.098 E23.45013
G1 X65.871 Y61.346 E23.54262
G1 X65.97 Y60.581 E23.63518
G1 X65.989 Y59.813 E23.72737
G1 X65.934 Y59.045 E23.81977
G1 X65.798 Y58.287 E23.91218
G1 X65.592 Y57.545 E24.00459
G1 X65.312 Y56.825 E24.09729
G1 X64.96 Y56.137 E24.19003
G1 X64.541 Y55.487 E24.28283
G1 X64.059 Y54.885 E24.37537
G1 X63.522 Y54.331 E24.46796
G1 X62.931 Y53.836 E24.56047
G1 X62.294 Y53.398 E24.65324
G1 X61.615 Y53.03 E24.74591
G1 X60.905 Y52.729 E24.83845
G1 X60.169 Y52.502 E24.93088
G1 X59.412 Y52.347 E25.0236
G1 X58.644 Y52.269 E25.11624
G1 X54.875 Y52.26 E25.56852
G1 X53.44 Y50.838 E25.81095
G1 X53.44 Y48.34 E26.11071
G1 X54.76 Y48.339 E26.26911
G1 X54.76 Y50.594 E26.53971
G1 X54.817 Y51.118 E26.60296
G1 X55.21 Y51.726 E26.68983
G1 X55.856 Y52.086 E26.77858
G1 X56.609 Y52.097 E26.86895
G1 X57.225 Y51.762 E26.95309
G1 X57.775 Y51.706 E27.01943
G1 X58.502 Y51.693 E27.10668
G1 X59.172 Y51.742 E27.1873
G1 X59.912 Y51.86 E27.27722
G1 X60.588 Y52.026 E27.36075
G1 X61.256 Y52.252 E27.44537
G1 X61.916 Y52.543 E27.53193
G1 X62.534 Y52.882 E27.61652
G1 X63.144 Y53.285 E27.70425
G1 X63.702 Y53.73 E27.78989
G1 X64.207 Y54.205 E27.87309
G1 X64.677 Y54.734 E27.958
G1 X65.107 Y55.308 E28.04407
G1 X65.494 Y55.93 E28.13198
G1 X65.809 Y56.547 E28.21511
G1 X66.068 Y57.186 E28.29785
G1 X66.285 Y57.887 E28.3859
G1 X66.438 Y58.588 E28.472
G1 X66.526 Y59.261 E28.55345
G1 X66.558 Y59.995 E28.64162
G1 X66.528 Y60.727 E28.72953
G1 X66.441 Y61.406 E28.81168
G1 X66.292 Y62.093 E28.89603
G1 X66.082 Y62.782 E28.98247
G1 X65.811 Y63.446 E29.06853
G1 X65.492 Y64.074 E29.15305
G1 X65.113 Y64.685 E29.23933
G1 X64.689 Y65.253 E29.32439
G1 X64.226 Y65.773 E29.40794
G1 X63.691 Y66.281 E29.49647
G1 X63.154 Y66.707 E29.57873
G1 X62.548 Y67.11 E29.66606
G1 X61.931 Y67.449 E29.75054
G1 X61.267 Y67.742 E29.83763
G1 X60.584 Y67.975 E29.92423
G1 X59.932 Y68.135 E30.00479
G1 X59.18 Y68.255 E30.09617
G1 X58.507 Y68.305 E30.17715
G1 X57.78 Y68.296 E30.2644
G1 X57.244 Y68.243 E30.32903
G1 X56.774 Y67.97 E30.39426
G1 X56.085 Y67.87 E30.4778
G1 X55.387 Y68.13 E30.56719
G1 X54.885 Y68.704 E30.65869
G1 X54.76 Y69.351 E30.73777
G0 F3600 X53.943 Y71.479
G1 F1800 X53.619 Y71.156 E30.79267
G0 F3600 X53.621 Y70.591
G1 F1800 X54.508 Y71.479 E30.94328
G0 F3600 X54.579 Y70.984
G1 F1800 X53.622 Y70.026 E31.10577
G0 F3600 X53.623 Y69.462
G1 F1800 X54.579 Y70.418 E31.26801
G0 F3600 X54.579 Y69.852
G1 F1800 X53.788 Y69.062 E31.40217
G0 F3600 X54.071 Y68.779
G1 F1800 X54.587 Y69.295 E31.48973
G0 F3600 X54.679 Y68.821
G1 F1800 X54.354 Y68.496 E31.54489
G0 F3600 X54.637 Y68.213
G1 F1800 X54.87 Y68.446 E31.58443
G0 F3600 X55.133 Y68.144
G1 F1800 X54.92 Y67.931 E31.62058
G0 F3600 X57.171 Y67.919
G1 F1800 X57.319 Y68.067 E31.64569
G0 F3600 X57.737 Y67.919
G1 F1800 X57.933 Y68.116 E31.67904
G0 F3600 X58.3 Y67.917
G1 F1800 X58.507 Y68.124 E31.71417
G0 F3600 X58.839 Y67.89
G1 F1800 X59.034 Y68.085 E31.74726
G0 F3600 X59.348 Y67.834
G1 F1800 X59.53 Y68.015 E31.77806
G0 F3600 X59.838 Y67.758
G1 F1800 X60.01 Y67.929 E31.80717
G0 F3600 X60.29 Y67.643
G1 F1800 X60.464 Y67.818 E31.83678
G0 F3600 X60.728 Y67.516
G1 F1800 X60.891 Y67.679 E31.86444
G0 F3600 X61.144 Y67.366
G1 F1800 X61.304 Y67.527 E31.89168
G0 F3600 X61.54 Y67.197
G1 F1800 X61.697 Y67.354 E31.91833
G0 F3600 X61.922 Y67.013
G1 F1800 X62.073 Y67.164 E31.94395
G0 F3600 X62.282 Y66.808
G1 F1800 X62.438 Y66.963 E31.97034
G0 F3600 X62.778 Y66.738
G1 F1800 X62.633 Y66.593 E31.99495
G0 F3600 X62.961 Y66.355
G1 F1800 X63.113 Y66.507 E32.02074
G0 F3600 X63.429 Y66.258
G1 F1800 X63.283 Y66.111 E32.0456
G0 F3600 X63.581 Y65.844
G1 F1800 X63.73 Y65.993 E32.07089
G0 F3600 X64.02 Y65.717
G1 F1800 X63.874 Y65.571 E32.09567
G0 F3600 X64.144 Y65.275
G1 F1800 X64.294 Y65.425 E32.12112
G0 F3600 X64.56 Y65.125
G1 F1800 X64.41 Y64.976 E32.1465
G0 F3600 X64.65 Y64.65
G1 F1800 X64.802 Y64.802 E32.17229
G0 F3600 X65.035 Y64.469
G1 F1800 X64.886 Y64.32 E32.19758
G0 F3600 X65.094 Y63.963
G1 F1800 X65.251 Y64.119 E32.22414
G0 F3600 X65.451 Y63.754
G1 F1800 X65.3 Y63.603 E32.24976
G0 F3600 X65.642 Y63.38
G1 F1800 X65.476 Y63.213 E32.27802
G0 F3600 X65.807 Y62.979
G1 F1800 X65.646 Y62.817 E32.30542
G0 F3600 X65.959 Y62.565
G1 F1800 X65.789 Y62.395 E32.33427
G0 F3600 X66.091 Y62.132
G1 F1800 X65.916 Y61.956 E32.36406
G0 F3600 X66.199 Y61.673
G1 F1800 X66.02 Y61.494 E32.39444
G0 F3600 X66.287 Y61.195
G1 F1800 X66.095 Y61.004 E32.42693
G0 F3600 X66.348 Y60.691
G1 F1800 X66.151 Y60.494 E32.46037
G0 F3600 X66.371 Y60.148
G1 F1800 X66.164 Y59.942 E32.49541
G0 F3600 X66.359 Y59.57
G1 F1800 X66.134 Y59.346 E32.53351
G0 F3600 X66.303 Y58.95
G1 F1800 X66.053 Y58.699 E32.57602
G0 F3600 X66.182 Y58.262
G1 F1800 X65.898 Y57.979 E32.62413
G0 F3600 X65.972 Y57.487
G1 F1800 X65.627 Y57.142 E32.68268
G0 F3600 X65.615 Y56.565
G1 F1800 X65.134 Y56.083 E32.76439
G0 F3600 X64.756 Y55.14
G1 F1800 X63.087 Y53.47 E33.04772
G1 X63.017 Y53.4
G0 F3600 X62.187 Y53.136
G1 F1800 X61.692 Y52.641 E33.13172
G0 F3600 X61.101 Y52.616
G1 F1800 X60.759 Y52.274 E33.18976
G0 F3600 X60.262 Y52.342
G1 F1800 X59.982 Y52.062 E33.23728
G0 F3600 X59.545 Y52.191
G1 F1800 X59.299 Y51.945 E33.27903
G0 F3600 X58.902 Y52.114
G1 F1800 X58.673 Y51.885 E33.31789
G0 F3600 X58.31 Y52.087
G1 F1800 X58.102 Y51.88 E33.3531
G0 F3600 X57.743 Y52.086
G1 F1800 X57.565 Y51.908 E33.38331
G0 F3600 X57.175 Y52.084
G1 F1800 X57.117 Y52.026 E33.39315
G0 F3600 X54.766 Y51.372
G1 F1800 X53.619 Y50.225 E33.58781
G0 F3600 X53.619 Y49.659
G1 F1800 X54.581 Y50.621 E33.75106
G0 F3600 X54.579 Y50.053
G1 F1800 X53.619 Y49.093 E33.91398
G0 F3600 X53.619 Y48.528
G1 F1800 X54.579 Y49.488 E34.0769
G0 F3600 X54.579 Y48.922
G1 F1800 X54.176 Y48.519 E34.14529
;MESH:NONMESH
G0 F600 X54.176 Y48.519 Z0.4
G0 F3600 X55.158 Y50.997
G0 X55.9 Y51.708
G0 X56.524 Y51.701
;TIME_ELAPSED:14.133991
;LAYER:1
M106 S255
;TYPE:WALL-INNER
;MESH:holder_3.stl
G1 F2700 X57.102 Y51.383 E34.17168
G1 X57.751 Y51.316 E34.19778
G1 X58.5 Y51.303 E34.22774
G1 X59.231 Y51.356 E34.25706
G1 X59.982 Y51.474 E34.28747
G1 X60.692 Y51.649 E34.31671
G1 X61.401 Y51.89 E34.34667
G1 X62.079 Y52.188 E34.37629
G1 X62.742 Y52.551 E34.40653
G1 X63.365 Y52.963 E34.4364
G1 X63.948 Y53.426 E34.46618
G1 X64.486 Y53.934 E34.49578
G1 X64.981 Y54.49 E34.52556
G1 X65.426 Y55.083 E34.55521
G1 X65.829 Y55.731 E34.58574
G1 X66.162 Y56.383 E34.61502
G1 X66.441 Y57.07 E34.64468
G1 X66.662 Y57.785 E34.67462
G1 X66.821 Y58.514 E34.70446
G1 X66.915 Y59.237 E34.73363
G1 X66.948 Y59.991 E34.76381
G1 X66.919 Y60.743 E34.79392
G1 X66.826 Y61.469 E34.82319
G1 X66.671 Y62.185 E34.8525
G1 X66.45 Y62.904 E34.88259
G1 X66.171 Y63.598 E34.9125
G1 X65.835 Y64.261 E34.94224
G1 X65.446 Y64.89 E34.97182
G1 X64.996 Y65.492 E35.00188
G1 X64.5 Y66.053 E35.03184
G1 X63.963 Y66.561 E35.0614
G1 X63.377 Y67.027 E35.09135
G1 X62.755 Y67.442 E35.12126
G1 X62.113 Y67.794 E35.15055
G1 X61.412 Y68.103 E35.18119
G1 X60.719 Y68.342 E35.21051
G1 X59.991 Y68.523 E35.24052
G1 X59.258 Y68.64 E35.27021
G1 X58.518 Y68.694 E35.29989
G1 X57.769 Y68.687 E35.32985
G1 X57.133 Y68.624 E35.35542
G1 X56.747 Y68.399 E35.37329
G1 X56.3 Y68.266 E35.39194
G1 X55.763 Y68.375 E35.41386
G1 X55.344 Y68.728 E35.43578
G1 X55.156 Y69.202 E35.45617
G1 X55.151 Y72.25 E35.57809
G1 X53.05 Y72.25 E35.66213
G1 X53.05 Y68.998 E35.79221
G1 X54.698 Y67.35 E35.88544
G1 X58.242 Y67.35 E36.0272
G1 X58.976 Y67.315 E36.05659
G1 X59.7 Y67.207 E36.08587
G1 X60.413 Y67.026 E36.1153
G1 X61.101 Y66.776 E36.14458
G1 X61.761 Y66.458 E36.17388
G1 X62.387 Y66.076 E36.20321
G1 X62.972 Y65.633 E36.23257
G1 X63.509 Y65.135 E36.26186
G1 X63.995 Y64.586 E36.29119
G1 X64.423 Y63.99 E36.32054
G1 X64.789 Y63.355 E36.34986
G1 X65.091 Y62.688 E36.37915
G1 X65.326 Y61.992 E36.40853
G1 X65.487 Y61.278 E36.43781
G1 X65.58 Y60.551 E36.46712
G1 X65.599 Y59.826 E36.49613
G1 X65.548 Y59.105 E36.52505
G1 X65.421 Y58.383 E36.55437
G1 X65.225 Y57.677 E36.58368
G1 X64.958 Y56.994 E36.61301
G1 X64.625 Y56.341 E36.64233
G1 X64.23 Y55.725 E36.6716
G1 X63.773 Y55.15 E36.70098
G1 X63.263 Y54.624 E36.73029
G1 X62.702 Y54.151 E36.75964
G1 X62.098 Y53.737 E36.78893
G1 X61.453 Y53.384 E36.81834
G1 X60.78 Y53.099 E36.84757
G1 X60.08 Y52.882 E36.87689
G1 X59.361 Y52.734 E36.90625
G1 X58.631 Y52.66 E36.9356
G1 X54.73 Y52.65 E37.09164
G1 X53.05 Y50.999 E37.18586
G1 X53.05 Y47.75 E37.31582
G1 X55.15 Y47.75 E37.39982
G1 X55.15 Y50.464 E37.50838
G1 X55.191 Y50.979 E37.52905
G1 X55.491 Y51.439 E37.55101
G1 X55.973 Y51.701 E37.57296
G1 X56.524 Y51.701 E37.595
G0 F5400 X56.421 Y51.301
;TYPE:WALL-OUTER
G1 F1800 X56.981 Y50.993 E37.62056
G1 X57.727 Y50.916 E37.65056
G1 X58.511 Y50.903 E37.68192
G1 X59.274 Y50.958 E37.71252
G1 X60.059 Y51.081 E37.74431
G1 X60.812 Y51.267 E37.77533
G1 X61.541 Y51.515 E37.80613
G1 X62.258 Y51.83 E37.83746
G1 X62.953 Y52.21 E37.86914
G1 X63.595 Y52.635 E37.89994
G1 X64.214 Y53.126 E37.93154
G1 X64.772 Y53.653 E37.96224
G1 X65.29 Y54.235 E37.99341
G1 X65.757 Y54.858 E38.02455
G1 X66.176 Y55.531 E38.05626
G1 X66.528 Y56.22 E38.08721
G1 X66.817 Y56.932 E38.11795
G1 X67.05 Y57.687 E38.14956
G1 X67.216 Y58.447 E38.18067
G1 X67.314 Y59.204 E38.2112
G1 X67.349 Y59.991 E38.24272
G1 X67.318 Y60.776 E38.27414
G1 X67.221 Y61.533 E38.30467
G1 X67.059 Y62.285 E38.33544
G1 X66.826 Y63.042 E38.36712
G1 X66.535 Y63.764 E38.39826
G1 X66.188 Y64.45 E38.42901
G1 X65.774 Y65.119 E38.46048
G1 X65.304 Y65.747 E38.49185
G1 X64.787 Y66.332 E38.52308
G1 X64.229 Y66.86 E38.55381
G1 X63.611 Y67.352 E38.58541
G1 X62.964 Y67.784 E38.61653
G1 X62.289 Y68.154 E38.64732
G1 X61.564 Y68.474 E38.67902
G1 X60.83 Y68.726 E38.71006
G1 X60.071 Y68.915 E38.74135
G1 X59.304 Y69.038 E38.77242
G1 X58.531 Y69.094 E38.80342
G1 X57.747 Y69.087 E38.83478
G1 X57.006 Y69.013 E38.86457
G1 X56.587 Y68.769 E38.88396
G1 X56.282 Y68.678 E38.89669
