;FLAVOR:UltiGCode
;TIME:719
;MATERIAL:704
;MATERIAL2:0
;NOZZLE_DIAMETER:0.4
;MINX:50.201
;MINY:50.531
;MINZ:0.3
;MAXX:69.799
;MAXY:69.469
;MAXZ:8
;Generated with Cura_SteamEngine 4.5.0
M82 ;absolute extrusion mode

G92 E0
G92 E0
G10
;LAYER_COUNT:78
;LAYER:0
M107
;MESH:pin_2.stl
G0 F3600 X66.144 Y56.602 Z0.3
;TYPE:WALL-INNER
G11
G1 F1800 X66.641 Y56.473 E0.06162
G1 X67.071 Y56.198 E0.12287
G1 X67.393 Y55.801 E0.18421
G1 X67.569 Y55.336 E0.24387
G1 X67.603 Y54.965 E0.28858
G1 X67.52 Y54.478 E0.34786
G1 X67.278 Y54.028 E0.40917
G1 X66.91 Y53.675 E0.47036
G1 X66.448 Y53.456 E0.53172
G1 X65.94 Y53.394 E0.59313
G1 X65.438 Y53.493 E0.65453
G1 X64.993 Y53.746 E0.71596
G1 X64.651 Y54.126 E0.77731
G1 X64.445 Y54.594 E0.83867
G1 X64.396 Y55.102 E0.89991
G1 X64.508 Y55.601 E0.96128
G1 X64.772 Y56.039 E1.02265
G1 X65.163 Y56.372 E1.08428
G1 X65.635 Y56.564 E1.14542
G1 X66.144 Y56.602 E1.20667
G0 F3600 X66.152 Y56.701
G0 X61.634 Y65.223
G0 X61.58 Y65.307
G1 F1800 X60.924 Y65.008 E1.29319
G1 X60.369 Y64.905 E1.36092
G1 X55.752 Y64.9 E1.91496
G1 X55.052 Y64.879 E1.999
G1 X54.634 Y64.823 E2.04961
G1 X54.191 Y64.721 E2.10416
G1 X53.746 Y64.574 E2.1604
G1 X53.345 Y64.401 E2.21281
G1 X52.948 Y64.183 E2.26716
G1 X52.589 Y63.943 E2.31898
G1 X52.242 Y63.659 E2.37278
G1 X51.916 Y63.341 E2.42743
G1 X51.626 Y63 E2.48115
G1 X51.375 Y62.645 E2.53332
G1 X51.15 Y62.255 E2.58735
G1 X50.959 Y61.842 E2.64196
G1 X50.813 Y61.429 E2.69452
G1 X50.701 Y60.993 E2.74854
G1 X50.633 Y60.565 E2.80054
G1 X50.601 Y60.104 E2.856
G1 X50.612 Y59.663 E2.90893
G1 X50.661 Y59.232 E2.96099
G1 X50.755 Y58.777 E3.01674
G1 X50.884 Y58.354 E3.06981
G1 X51.046 Y57.957 E3.12126
G1 X51.261 Y57.541 E3.17745
G1 X51.487 Y57.189 E3.22765
G1 X51.776 Y56.817 E3.28418
G1 X52.077 Y56.494 E3.33716
G1 X52.403 Y56.204 E3.38952
G1 X52.772 Y55.931 E3.4446
G1 X53.146 Y55.702 E3.49723
G1 X53.548 Y55.505 E3.55095
G1 X53.962 Y55.349 E3.60404
G1 X54.397 Y55.226 E3.65828
G1 X54.837 Y55.145 E3.71197
G1 X55.27 Y55.106 E3.76414
G1 X59.947 Y55.1 E4.32538
G1 X60.534 Y55.079 E4.39587
G1 X61.099 Y54.933 E4.46589
G1 X61.724 Y54.592 E4.55133
G1 X64.845 Y51.501 E5.07844
G1 X65.161 Y51.212 E5.12983
G1 X65.446 Y51.047 E5.16935
G1 X65.735 Y50.958 E5.20563
G1 X66.06 Y50.934 E5.24474
G1 X66.362 Y50.98 E5.2814
G1 X66.649 Y51.093 E5.31841
G1 X66.922 Y51.278 E5.35798
G1 X69.399 Y53.748 E5.77775
G1 X69.399 Y66.252 E7.27823
G1 X67.128 Y68.523 E7.66363
G1 X66.827 Y68.796 E7.7124
G1 X66.562 Y68.95 E7.74918
G1 X66.26 Y69.042 E7.78706
G1 X65.938 Y69.066 E7.82581
G1 X65.636 Y69.02 E7.86247
G1 X65.35 Y68.907 E7.89937
G1 X65.077 Y68.722 E7.93894
G1 X62.145 Y65.797 E8.43592
G1 X61.58 Y65.307 E8.52567
G0 F3600 X61.634 Y65.223
G0 X65.226 Y66.464
G0 X66.152 Y66.701
G0 X66.144 Y66.602
G1 F1800 X66.641 Y66.473 E8.58729
G1 X67.071 Y66.198 E8.64854
G1 X67.393 Y65.801 E8.70988
G1 X67.569 Y65.336 E8.76954
G1 X67.603 Y64.965 E8.81425
G1 X67.52 Y64.478 E8.87353
G1 X67.278 Y64.028 E8.93484
G1 X66.91 Y63.675 E8.99603
G1 X66.448 Y63.456 E9.05739
G1 X65.94 Y63.394 E9.1188
G1 X65.438 Y63.493 E9.1802
G1 X64.993 Y63.746 E9.24163
G1 X64.651 Y64.126 E9.30298
G1 X64.445 Y64.594 E9.36434
G1 X64.396 Y65.102 E9.42558
G1 X64.508 Y65.601 E9.48695
G1 X64.772 Y66.039 E9.54832
G1 X65.163 Y66.372 E9.60995
G1 X65.635 Y66.564 E9.67109
G1 X66.144 Y66.602 E9.73234
G0 F3600 X66.108 Y66.198
;TYPE:WALL-OUTER
G1 F1800 X66.479 Y66.102 E9.77833
G1 X66.801 Y65.896 E9.8242
G1 X67.042 Y65.599 E9.8701
G1 X67.176 Y65.245 E9.91552
G1 X67.2 Y64.981 E9.94733
G1 X67.137 Y64.61 E9.99249
G1 X66.956 Y64.273 E10.03839
G1 X66.68 Y64.009 E10.08422
G1 X66.335 Y63.845 E10.13006
G1 X65.955 Y63.799 E10.176
G1 X65.579 Y63.873 E10.22198
G1 X65.247 Y64.062 E10.26783
G1 X64.991 Y64.346 E10.31371
G1 X64.837 Y64.696 E10.35959
G1 X64.8 Y65.077 E10.40553
G1 X64.884 Y65.45 E10.45141
G1 X65.081 Y65.777 E10.49722
G1 X65.373 Y66.026 E10.54327
G1 X65.727 Y66.17 E10.58913
G1 X66.108 Y66.198 E10.63497
G0 F3600 X66.301 Y66.148
G0 X66.426 Y66.632
G0 X61.568 Y65.192
G0 X61.361 Y65.647
G1 F1800 X60.803 Y65.392 E10.70859
G1 X60.332 Y65.305 E10.76607
G1 X55.74 Y65.3 E11.31711
G1 X55.026 Y65.279 E11.40283
G1 X54.555 Y65.216 E11.45985
G1 X54.082 Y65.107 E11.5181
G1 X53.607 Y64.95 E11.57813
G1 X53.168 Y64.76 E11.63553
G1 X52.747 Y64.529 E11.69316
G1 X52.345 Y64.26 E11.7512
G1 X51.974 Y63.957 E11.80868
G1 X51.625 Y63.616 E11.86724
G1 X51.307 Y63.243 E11.92606
G1 X51.036 Y62.859 E11.98246
G1 X50.797 Y62.444 E12.03992
G1 X50.588 Y61.992 E12.09968
G1 X50.432 Y61.553 E12.15559
G1 X50.308 Y61.069 E12.21554
G1 X50.235 Y60.611 E12.2712
G1 X50.201 Y60.111 E12.33134
G1 X50.212 Y59.642 E12.38763
G1 X50.267 Y59.158 E12.44609
G1 X50.367 Y58.678 E12.50492
G1 X50.504 Y58.229 E12.56125
G1 X50.684 Y57.787 E12.61852
G1 X50.914 Y57.342 E12.67864
G1 X51.164 Y56.951 E12.73433
G1 X51.466 Y56.563 E12.79333
G1 X51.801 Y56.204 E12.85225
G1 X52.15 Y55.893 E12.90835
G1 X52.544 Y55.602 E12.96712
G1 X52.952 Y55.352 E13.02454
G1 X53.391 Y55.137 E13.0832
G1 X53.835 Y54.969 E13.14017
G1 X54.305 Y54.837 E13.19875
G1 X54.782 Y54.749 E13.25696
G1 X55.256 Y54.706 E13.31407
G1 X59.94 Y54.7 E13.87615
G1 X60.476 Y54.681 E13.94051
G1 X60.951 Y54.558 E13.99939
G1 X61.483 Y54.268 E14.0721
G1 X64.575 Y51.207 E14.59421
G1 X64.921 Y50.889 E14.6506
G1 X65.283 Y50.679 E14.70082
G1 X65.662 Y50.562 E14.74842
G1 X66.074 Y50.532 E14.79799
G1 X66.467 Y50.592 E14.84569
G1 X66.839 Y50.738 E14.89365
G1 X67.175 Y50.966 E14.94238
G1 X69.799 Y53.583 E15.38709
G1 X69.799 Y66.418 E16.92729
G1 X67.408 Y68.809 E17.33306
G1 X67.066 Y69.12 E17.38853
G1 X66.719 Y69.321 E17.43665
G1 X66.336 Y69.438 E17.48471
G1 X65.924 Y69.468 E17.53428
G1 X65.532 Y69.408 E17.58186
G1 X65.16 Y69.262 E17.62982
G1 X64.824 Y69.034 E17.67855
G1 X61.872 Y66.09 E18.17884
G1 X61.361 Y65.647 E18.25999
G0 F3600 X61.179 Y65.564
G0 X61.386 Y65.109
G0 X66.071 Y56.696
G0 X66.108 Y56.198
G1 F1800 X66.479 Y56.102 E18.30598
G1 X66.801 Y55.896 E18.35185
G1 X67.042 Y55.599 E18.39775
G1 X67.176 Y55.245 E18.44317
G1 X67.2 Y54.981 E18.47498
G1 X67.137 Y54.61 E18.52014
G1 X66.956 Y54.273 E18.56604
G1 X66.68 Y54.009 E18.61187
G1 X66.335 Y53.845 E18.65771
G1 X65.955 Y53.799 E18.70365
G1 X65.579 Y53.873 E18.74963
G1 X65.247 Y54.062 E18.79547
G1 X64.991 Y54.346 E18.84136
G1 X64.837 Y54.696 E18.88724
G1 X64.8 Y55.077 E18.93318
G1 X64.884 Y55.45 E18.97906
G1 X65.081 Y55.777 E19.02487
G1 X65.373 Y56.026 E19.07092
G1 X65.727 Y56.17 E19.11678
G1 X66.108 Y56.198 E19.16262
G0 F3600 X66.301 Y56.148
G0 X66.799 Y56.835
;TYPE:SKIN
G1 F1800 X67.334 Y56.493 E19.23882
G1 X67.736 Y55.998 E19.31534
G1 X67.953 Y55.424 E19.38898
G1 X67.996 Y54.95 E19.44609
G1 X67.894 Y54.349 E19.51924
G1 X67.592 Y53.789 E19.59559
G1 X67.134 Y53.35 E19.67172
G1 X66.557 Y53.076 E19.74837
G1 X65.926 Y53 E19.82464
G1 X65.3 Y53.123 E19.9012
G1 X64.745 Y53.438 E19.97777
G1 X64.319 Y53.912 E20.05425
G1 X64.063 Y54.494 E20.13055
G1 X64.002 Y55.127 E20.20686
G1 X64.141 Y55.748 E20.28322
G1 X64.471 Y56.295 E20.35988
G1 X64.958 Y56.709 E20.43659
G1 X65.545 Y56.948 E20.51264
G1 X66.179 Y56.996 E20.58894
G1 X66.799 Y56.835 E20.66581
G0 F3600 X69.009 Y53.91
G1 F1800 X69.009 Y66.092 E22.12765
G1 X66.866 Y68.235 E22.49133
G1 X66.594 Y68.48 E22.53526
G1 X66.406 Y68.59 E22.56139
G1 X66.184 Y68.658 E22.58926
G1 X65.96 Y68.674 E22.6162
G1 X65.737 Y68.64 E22.64327
G1 X65.534 Y68.56 E22.66946
G1 X65.326 Y68.419 E22.69961
G1 X62.41 Y65.511 E23.19379
G1 X61.793 Y64.975 E23.29187
G1 X61.043 Y64.633 E23.39079
G1 X60.406 Y64.515 E23.46853
G1 X55.764 Y64.51 E24.02557
G1 X55.077 Y64.489 E24.10805
G1 X54.71 Y64.441 E24.15246
G1 X54.294 Y64.344 E24.20372
G1 X53.883 Y64.209 E24.25563
G1 X53.517 Y64.051 E24.30347
G1 X53.153 Y63.851 E24.35331
G1 X52.823 Y63.63 E24.40097
G1 X52.504 Y63.37 E24.45035
G1 X52.201 Y63.072 E24.50135
G1 X51.928 Y62.753 E24.55174
G1 X51.707 Y62.44 E24.59771
G1 X51.496 Y62.074 E24.64841
G1 X51.321 Y61.696 E24.6984
G1 X51.186 Y61.315 E24.7469
G1 X51.085 Y60.919 E24.79594
G1 X51.021 Y60.522 E24.8442
G1 X50.991 Y60.077 E24.89772
G1 X51.002 Y59.694 E24.9437
G1 X51.047 Y59.29 E24.99248
G1 X51.133 Y58.873 E25.04357
G1 X51.251 Y58.486 E25.09212
G1 X51.397 Y58.128 E25.13852
G1 X51.603 Y57.73 E25.19229
G1 X51.801 Y57.421 E25.23633
G1 X52.084 Y57.057 E25.29166
G1 X52.346 Y56.775 E25.33785
G1 X52.642 Y56.513 E25.38529
G1 X52.995 Y56.252 E25.43797
G1 X53.325 Y56.05 E25.4844
G1 X53.71 Y55.862 E25.53581
G1 X54.09 Y55.718 E25.58458
G1 X54.478 Y55.608 E25.63297
G1 X54.898 Y55.531 E25.68421
G1 X55.283 Y55.496 E25.7306
G1 X59.955 Y55.49 E26.29124
G1 X60.591 Y55.467 E26.36761
G1 X61.243 Y55.298 E26.44844
G1 X61.96 Y54.908 E26.54638
G1 X65.114 Y51.784 E27.0791
G1 X65.394 Y51.528 E27.12462
G1 X65.601 Y51.407 E27.1534
G1 X65.813 Y51.342 E27.18
G1 X66.038 Y51.326 E27.20707
G1 X66.262 Y51.36 E27.23426
G1 X66.465 Y51.44 E27.26044
G1 X66.673 Y51.581 E27.2906
G1 X69.009 Y53.91 E27.68644
G0 F3600 X65.926 Y63
G1 F1800 X65.3 Y63.123 E27.76299
G1 X64.745 Y63.438 E27.83957
G1 X64.319 Y63.912 E27.91605
G1 X64.063 Y64.494 E27.99235
G1 X64.002 Y65.127 E28.06866
G1 X64.141 Y65.748 E28.14502
G1 X64.471 Y66.295 E28.22168
G1 X64.958 Y66.709 E28.29839
G1 X65.545 Y66.948 E28.37444
G1 X66.179 Y66.996 E28.45074
G1 X66.799 Y66.835 E28.52761
G1 X67.334 Y66.493 E28.6038
G1 X67.736 Y65.998 E28.68032
G1 X67.953 Y65.424 E28.75396
G1 X67.996 Y64.95 E28.81107
G1 X67.894 Y64.349 E28.88423
G1 X67.592 Y63.789 E28.96057
G1 X67.134 Y63.35 E29.0367
G1 X66.557 Y63.076 E29.11336
G1 X65.926 Y63 E29.18962
G0 F3600 X68.828 Y54.12
G1 F1800 X66.26 Y51.553 E29.62534
G0 F3600 X65.705 Y51.563
G1 F1800 X68.828 Y54.686 E30.15533
G0 F3600 X68.828 Y55.251
G1 F1800 X68.107 Y54.53 E30.27769
G0 F3600 X68.158 Y55.147
G1 F1800 X68.828 Y55.817 E30.39139
G0 F3600 X68.828 Y56.383
G1 F1800 X68.068 Y55.623 E30.52037
G0 F3600 X67.914 Y56.034
G1 F1800 X68.828 Y56.948 E30.67548
G0 F3600 X68.828 Y57.514
G1 F1800 X67.672 Y56.359 E30.87157
G0 F3600 X67.407 Y56.659
G1 F1800 X68.828 Y58.08 E31.11273
G0 F3600 X68.828 Y58.646
G1 F1800 X67.062 Y56.879 E31.41251
G0 F3600 X66.671 Y57.055
G1 F1800 X68.828 Y59.211 E31.77848
G0 F3600 X68.828 Y59.777
G1 F1800 X66.222 Y57.171 E32.22073
G0 F3600 X65.619 Y57.134
G1 F1800 X68.828 Y60.343 E32.76532
G0 F3600 X68.828 Y60.908
G1 F1800 X64.341 Y56.421 E33.52679
G0 F3600 X64.329 Y56.409
G1 F1800 X62.523 Y54.604 E33.83319
G0 F3600 X62.239 Y54.885
G1 F1800 X68.828 Y61.474 E34.95138
G0 F3600 X68.828 Y62.04
G1 F1800 X61.921 Y55.133 E36.12354
G0 F3600 X61.555 Y55.332
G1 F1800 X68.828 Y62.605 E37.35781
G0 F3600 X68.828 Y63.171
G1 F1800 X61.161 Y55.505 E38.65886
G0 F3600 X60.712 Y55.621
G1 F1800 X68.828 Y63.737 E40.03619
G0 F3600 X68.828 Y64.302
G1 F1800 X60.187 Y55.662 E41.50253
G0 F3600 X59.631 Y55.671
G1 F1800 X67.089 Y63.129 E42.76819
G1 X67.159 Y63.199
G0 F3600 X66.251 Y62.857
G1 F1800 X59.066 Y55.671 E43.98761
G0 F3600 X58.501 Y55.672
G1 F1800 X65.69 Y62.862 E45.20771
G0 F3600 X65.222 Y62.959
G1 F1800 X57.936 Y55.673 E46.44419
G0 F3600 X57.37 Y55.673
G1 F1800 X64.86 Y63.163 E47.71528
G0 F3600 X64.534 Y63.402
G1 F1800 X56.805 Y55.674 E49.02685
G0 F3600 X56.24 Y55.674
G1 F1800 X64.266 Y63.7 E50.38891
G0 F3600 X64.058 Y64.058
G1 F1800 X55.675 Y55.675 E51.81155
G0 F3600 X55.124 Y55.69
G1 F1800 X63.887 Y64.452 E53.2986
G0 F3600 X63.836 Y64.968
G1 F1800 X54.63 Y55.761 E54.86099
G0 F3600 X54.181 Y55.878
G1 F1800 X63.931 Y65.628 E56.51562
G1 X64.001 Y65.698
G0 F3600 X65.374 Y67.071
G1 F1800 X66.564 Y68.261 E56.71757
G0 F3600 X66.857 Y67.989
G1 F1800 X66.033 Y67.165 E56.85741
G0 F3600 X66.526 Y67.092
G1 F1800 X67.14 Y67.706 E56.96161
G0 F3600 X67.423 Y67.423
G1 F1800 X66.95 Y66.95 E57.04188
G0 F3600 X67.295 Y66.729
G1 F1800 X67.706 Y67.14 E57.11163
G0 F3600 X67.989 Y66.857
G1 F1800 X67.59 Y66.459 E57.17926
G0 F3600 X67.844 Y66.147
G1 F1800 X68.271 Y66.574 E57.25172
G0 F3600 X68.554 Y66.291
G1 F1800 X68.018 Y65.755 E57.34268
G0 F3600 X68.143 Y65.314
G1 F1800 X68.828 Y65.999 E57.45893
G0 F3600 X68.828 Y65.434
G1 F1800 X68.144 Y64.75 E57.57501
G0 F3600 X68.828 Y64.868
G1 F1800 X67.851 Y63.892 E57.74073
G1 X67.781 Y63.822
G0 F3600 X67.607 Y65.344
G0 X66.2 Y68.463
G1 F1800 X53.77 Y56.033 E59.85017
G0 F3600 X53.39 Y56.219
G1 F1800 X65.466 Y68.294 E61.89945
G1 X65.536 Y68.364
G0 F3600 X61.058 Y64.452
G1 F1800 X53.045 Y56.439 E63.2593
G0 F3600 X52.722 Y56.682
G1 F1800 X60.374 Y64.333 E64.5578
G0 F3600 X59.807 Y64.333
G1 F1800 X52.427 Y56.952 E65.81032
G0 F3600 X52.159 Y57.25
G1 F1800 X59.241 Y64.332 E67.01217
G0 F3600 X58.675 Y64.331
G1 F1800 X51.915 Y57.572 E68.1593
G0 F3600 X51.703 Y57.926
G1 F1800 X58.109 Y64.331 E69.24634
G0 F3600 X57.542 Y64.331
G1 F1800 X51.517 Y58.305 E70.26891
G0 F3600 X51.366 Y58.72
G1 F1800 X56.976 Y64.33 E71.22095
G0 F3600 X56.41 Y64.329
G1 F1800 X51.253 Y59.173 E72.09604
G0 F3600 X51.186 Y59.671
G1 F1800 X55.843 Y64.329 E72.88645
G0 F3600 X55.262 Y64.313
G1 F1800 X51.181 Y60.232 E73.57901
G0 F3600 X51.26 Y60.876
G1 F1800 X54.616 Y64.233 E74.14863
G1 X54.686 Y64.303
G0 F3600 X53.788 Y63.971
G1 F1800 X51.522 Y61.704 E74.53327
G1 X51.452 Y61.634
G0 F3600 X62.807 Y54.322
G1 F1800 X63.877 Y55.391 E74.71477
G0 F3600 X63.852 Y54.801
G1 F1800 X63.091 Y54.04 E74.84392
G0 F3600 X63.375 Y53.759
G1 F1800 X63.94 Y54.324 E74.9398
G0 F3600 X64.113 Y53.931
G1 F1800 X63.66 Y53.477 E75.01676
G0 F3600 X63.944 Y53.196
G1 F1800 X64.353 Y53.605 E75.08617
G0 F3600 X64.62 Y53.306
G1 F1800 X64.228 Y52.914 E75.15269
G0 F3600 X64.512 Y52.633
G1 F1800 X64.977 Y53.098 E75.23161
G0 F3600 X65.37 Y52.925
G1 F1800 X64.797 Y52.352 E75.32885
G0 F3600 X65.08 Y52.069
G1 F1800 X65.843 Y52.832 E75.45833
G0 F3600 X66.459 Y52.883
G1 F1800 X65.37 Y51.794 E75.64314
G1 X65.3 Y51.724
;MESH:NONMESH
G0 F600 X65.3 Y51.724 Z0.4
G0 F3600 X64.333 Y54.729
G0 X64.41 Y54.736
;TIME_ELAPSED:27.175634
;LAYER:1
M106 S255
;TYPE:WALL-INNER
;MESH:pin_2.stl
G1 F2700 X64.419 Y55.292 E75.66539
G1 X64.593 Y55.775 E75.68592
G1 X64.907 Y56.179 E75.70639
G1 X65.333 Y56.462 E75.72685
G1 X65.826 Y56.597 E75.74729
G1 X66.335 Y56.571 E75.76768
G1 X66.813 Y56.387 E75.78817
G1 X67.207 Y56.06 E75.80865
G1 X67.479 Y55.627 E75.8291
G1 X67.604 Y55.114 E75.85022
G1 X67.52 Y54.471 E75.87616
G1 X67.264 Y54.01 E75.89725
G1 X66.89 Y53.663 E75.91766
G1 X66.426 Y53.451 E75.93807
G1 X65.918 Y53.395 E75.95851
G1 X65.416 Y53.502 E75.97904
G1 X64.976 Y53.762 E75.99948
G1 X64.631 Y54.153 E76.02034
G1 X64.41 Y54.736 E76.04528
G0 F5400 X64.312 Y54.719
G0 X64.312 Y64.719
G0 X64.41 Y64.736
G1 F2700 X64.419 Y65.292 E76.06752
G1 X64.593 Y65.775 E76.08806
G1 X64.907 Y66.179 E76.10853
G1 X65.333 Y66.462 E76.12898
G1 X65.826 Y66.597 E76.14943
G1 X66.335 Y66.571 E76.16982
G1 X66.813 Y66.387 E76.1903
G1 X67.207 Y66.06 E76.21078
G1 X67.479 Y65.627 E76.23124
G1 X67.604 Y65.114 E76.25236
G1 X67.52 Y64.471 E76.2783
G1 X67.264 Y64.01 E76.29939
G1 X66.89 Y63.663 E76.3198
G1 X66.426 Y63.451 E76.3402
G1 X65.918 Y63.395 E76.36064
G1 X65.416 Y63.502 E76.38118
G1 X64.976 Y63.762 E76.40162
G1 X64.631 Y64.153 E76.42248
G1 X64.41 Y64.736 E76.44742
G0 F5400 X64.312 Y64.719
G0 X60.922 Y64.902
G0 X60.896 Y64.998
G1 F2700 X60.232 Y64.902 E76.47425
G1 X55.527 Y64.9 E76.66245
G1 X55.04 Y64.877 E76.68195
G1 X54.623 Y64.821 E76.69878
G1 X54.177 Y64.717 E76.7171
G1 X53.746 Y64.574 E76.73527
G1 X53.345 Y64.401 E76.75274
G1 X52.948 Y64.183 E76.77085
G1 X52.589 Y63.943 E76.78813
G1 X52.242 Y63.659 E76.80606
G1 X51.916 Y63.341 E76.82428
G1 X51.626 Y63 E76.84218
G1 X51.375 Y62.645 E76.85957
G1 X51.15 Y62.255 E76.87758
G1 X50.959 Y61.842 E76.89579
G1 X50.813 Y61.429 E76.91331
G1 X50.701 Y60.993 E76.93131
G1 X50.633 Y60.565 E76.94865
G1 X50.601 Y60.104 E76.96713
G1 X50.612 Y59.663 E76.98478
G1 X50.661 Y59.232 E77.00213
G1 X50.755 Y58.777 E77.02071
G1 X50.884 Y58.354 E77.0384
G1 X51.046 Y57.957 E77.05555
G1 X51.261 Y57.541 E77.07429
G1 X51.487 Y57.189 E77.09102
G1 X51.776 Y56.817 E77.10986
G1 X52.077 Y56.494 E77.12752
G1 X52.403 Y56.204 E77.14497
G1 X52.772 Y55.931 E77.16333
G1 X53.146 Y55.702 E77.18088
G1 X53.548 Y55.505 E77.19878
G1 X53.962 Y55.349 E77.21648
G1 X54.397 Y55.226 E77.23456
G1 X54.837 Y55.145 E77.25246
G1 X55.27 Y55.106 E77.26985
G1 X60.213 Y55.1 E77.46757
G1 X60.875 Y55.008 E77.4943
