;FLAVOR:UltiGCode
;TIME:4213
;MATERIAL:3906
;MATERIAL2:0
;NOZZLE_DIAMETER:0.4
;MINX:50.2
;MINY:42.202
;MINZ:0.3
;MAXX:69.8
;MAXY:77.798
;MAXZ:58
;Generated with Cura_SteamEngine 4.5.0
M82 ;absolute extrusion mode

G92 E0
G92 E0
G10
;LAYER_COUNT:578
;LAYER:0
M107
;MESH:holder_4.stl
G0 F3600 X67.42 Y46.234 Z0.3
;TYPE:WALL-INNER
G11
G1 F1800 X67.536 Y46.38 E0.02238
G1 X67.829 Y46.797 E0.08353
G1 X68.096 Y47.222 E0.14376
G1 X68.349 Y47.678 E0.20634
G1 X68.553 Y48.1 E0.26259
G1 X68.756 Y48.581 E0.32524
G1 X68.923 Y49.041 E0.38396
G1 X69.065 Y49.509 E0.44265
G1 X69.189 Y50.016 E0.50528
G1 X69.283 Y50.519 E0.56669
G1 X69.345 Y50.983 E0.62286
G1 X69.387 Y51.503 E0.68547
G1 X69.4 Y51.998 E0.74489
G1 X69.4 Y68.548 E2.73089
G1 X50.6 Y68.548 E4.98689
G1 X50.6 Y52.014 E6.97097
G1 X50.613 Y51.503 E7.03231
G1 X50.654 Y50.993 E7.09371
G1 X50.717 Y50.519 E7.15109
G1 X50.812 Y50.015 E7.21263
G1 X50.929 Y49.53 E7.2725
G1 X51.077 Y49.041 E7.33381
G1 X51.24 Y48.59 E7.39135
G1 X51.443 Y48.108 E7.45412
G1 X51.651 Y47.678 E7.51144
G1 X51.904 Y47.222 E7.57401
G1 X52.165 Y46.805 E7.63305
G1 X52.464 Y46.38 E7.6954
G1 X52.586 Y46.224 E7.71917
G1 X52.696 Y46.084 E7.74053
G1 X52.754 Y46.011 E7.75172
G1 X53.023 Y45.703 E7.80079
G1 X53.099 Y45.616 E7.81466
G1 X53.386 Y45.322 E7.86396
G1 X53.432 Y45.275 E7.87185
G1 X53.769 Y44.964 E7.92688
G1 X53.815 Y44.921 E7.93444
G1 X54.141 Y44.65 E7.98531
G1 X54.192 Y44.608 E7.99324
G1 X54.268 Y44.552 E8.00456
G1 X54.601 Y44.303 E8.05446
G1 X55.001 Y44.038 E8.11204
G1 X55.459 Y43.768 E8.17584
G1 X55.888 Y43.545 E8.23386
G1 X56.341 Y43.34 E8.29352
G1 X56.817 Y43.154 E8.35485
G1 X57.287 Y42.999 E8.41424
G1 X57.773 Y42.866 E8.4747
G1 X58.259 Y42.761 E8.53437
G1 X58.741 Y42.684 E8.59294
G1 X59.257 Y42.628 E8.65523
G1 X59.747 Y42.602 E8.71411
G1 X60.253 Y42.602 E8.77483
G1 X60.743 Y42.628 E8.83371
G1 X61.259 Y42.684 E8.89599
G1 X61.741 Y42.761 E8.95457
G1 X62.227 Y42.866 E9.01423
G1 X62.713 Y42.999 E9.0747
G1 X63.183 Y43.154 E9.13409
G1 X63.659 Y43.34 E9.19541
G1 X64.112 Y43.545 E9.25508
G1 X64.541 Y43.768 E9.3131
G1 X64.978 Y44.026 E9.374
G1 X65.412 Y44.313 E9.43643
G1 X65.702 Y44.529 E9.47983
G1 X65.808 Y44.608 E9.49569
G1 X66.008 Y44.773 E9.5268
G1 X66.186 Y44.921 E9.55458
G1 X66.391 Y45.11 E9.58804
G1 X66.569 Y45.275 E9.61717
G1 X66.77 Y45.482 E9.65179
G1 X66.901 Y45.616 E9.67428
G1 X67.119 Y45.866 E9.71408
G1 X67.246 Y46.011 E9.73721
G1 X67.419 Y46.232 E9.77089
G1 X67.42 Y46.234 E9.77116
G0 F3600 X66.954 Y52.919
G0 X66.179 Y56.064
G1 F1800 X65.957 Y55.971 E9.80004
G1 X66.091 Y55.77 E9.81785
G1 X66.208 Y55.596 E9.84301
G1 X66.628 Y54.749 E9.95646
G1 X66.93 Y53.86 E10.06912
G1 X67.113 Y52.939 E10.1818
G1 X67.175 Y52.004 E10.29425
G1 X67.118 Y51.069 E10.40666
G1 X66.934 Y50.146 E10.5196
G1 X66.633 Y49.259 E10.632
G1 X66.218 Y48.416 E10.74475
G1 X66.091 Y48.226 E10.77218
G1 X66.09 Y48.225 E10.77235
G1 X65.961 Y48.031 E10.8003
G1 X66.173 Y47.934 E10.81766
G1 X66.396 Y47.831 E10.84713
G1 X66.78 Y47.471 E10.9103
G1 X67.027 Y47.001 E10.97401
G1 X67.107 Y46.48 E11.03726
G1 X67.107 Y46.478 E11.0375
G1 X67.031 Y46.05 E11.08001
G1 X67.014 Y45.959 E11.08191
G1 X66.842 Y45.649 E11.09408
G1 X66.757 Y45.496 E11.09585
G1 X66.543 Y45.305 E11.09818
G1 X66.362 Y45.142 E11.10118
G1 X66.134 Y45.046 E11.10666
G1 X65.874 Y44.936 E11.12322
G1 X65.785 Y44.93 E11.1272
G1 X65.653 Y44.921 E11.14159
G1 X65.348 Y44.898 E11.1783
G1 X64.835 Y45.034 E11.24198
G1 X64.397 Y45.331 E11.30549
G1 X64.078 Y45.75 E11.36868
G1 X63.98 Y46.046 E11.4061
G1 X63.911 Y46
G1 X63.597 Y45.79 E11.45143
G1 X62.751 Y45.371 E11.56472
G1 X61.862 Y45.068 E11.67742
G1 X60.941 Y44.885 E11.7901
G1 X60.009 Y44.823 E11.90219
G1 X59.074 Y44.88 E12.0146
G1 X58.149 Y45.064 E12.12777
G1 X57.261 Y45.366 E12.24033
G1 X56.418 Y45.78 E12.35303
G1 X56.202 Y45.924 E12.38418
G1 X56.056 Y46.021 E12.40522
G1 X56.029 Y46.039 E12.40911
G1 X56.014 Y45.959 E12.41351
G1 X55.929 Y45.805 E12.42828
G1 X55.757 Y45.496 E12.47072
G1 X55.362 Y45.142 E12.53437
G1 X54.874 Y44.936 E12.59793
G1 X54.442 Y44.904 E12.64992
G1 X54.348 Y44.898 E12.66027
G1 X54.274 Y44.917 E12.66763
G1 X53.845 Y45.031 E12.6962
G1 X53.835 Y45.034
G1 X53.447 Y45.297 E12.70539
G1 X53.397 Y45.331 E12.70546
G1 X53.151 Y45.655 E12.71007
G1 X53.078 Y45.75 E12.71268
G1 X52.969 Y46.081 E12.72652
G1 X52.912 Y46.253 E12.74219
G1 X52.914 Y46.432 E12.76049
G1 X52.918 Y46.783 E12.80261
G1 X53.097 Y47.28 E12.866
G1 X53.426 Y47.695 E12.92955
G1 X53.773 Y47.915 E12.97886
G1 X53.873 Y47.978 E12.99304
G1 X54.047 Y48.02 E13.01452
G1 X54.013 Y48.071
G1 X53.947 Y48.169 E13.02575
G1 X53.792 Y48.401 E13.05924
G1 X53.372 Y49.247 E13.17258
G1 X53.07 Y50.136 E13.28525
G1 X52.887 Y51.057 E13.39793
G1 X52.825 Y51.992 E13.51037
G1 X52.882 Y52.927 E13.62278
G1 X53.066 Y53.85 E13.73572
G1 X53.367 Y54.737 E13.84812
G1 X53.782 Y55.581 E13.96098
G1 X54.007 Y55.918 E14.00961
G1 X54.047 Y55.978 E14.01826
G1 X53.835 Y56.034 E14.03335
G1 X53.397 Y56.331 E14.09686
G1 X53.078 Y56.75 E14.16005
G1 X52.912 Y57.253 E14.22361
G1 X52.918 Y57.783 E14.28722
G1 X53.097 Y58.28 E14.35061
G1 X53.426 Y58.695 E14.41416
G1 X53.873 Y58.978 E14.47764
G1 X54.386 Y59.101 E14.54095
G1 X54.914 Y59.052 E14.60458
G1 X55.396 Y58.831 E14.66821
G1 X55.78 Y58.471 E14.73137
G1 X55.934 Y58.179 E14.77099
G1 X56.027 Y58.001 E14.79509
G1 X56.033 Y57.96 E14.80006
G1 X56.047 Y57.969
G1 X56.214 Y58.08 E14.81599
G1 X56.403 Y58.206 E14.84325
G1 X57.249 Y58.626 E14.95659
G1 X58.138 Y58.928 E15.06926
G1 X59.059 Y59.111 E15.18194
G1 X59.991 Y59.173 E15.29403
G1 X60.926 Y59.116 E15.40643
G1 X61.85 Y58.932 E15.51949
G1 X62.739 Y58.631 E15.63212
G1 X63.582 Y58.216 E15.74487
G1 X63.909 Y57.999 E15.79197
G1 X63.979 Y57.952 E15.80209
G1 X64.097 Y58.28 E15.8308
G1 X64.426 Y58.695 E15.89435
G1 X64.873 Y58.978 E15.95783
G1 X65.386 Y59.101 E16.02114
G1 X65.914 Y59.052 E16.08477
G1 X66.396 Y58.831 E16.1484
G1 X66.78 Y58.471 E16.21156
G1 X67.027 Y58.001 E16.27528
G1 X67.107 Y57.478 E16.33877
G1 X67.014 Y56.959 E16.40204
G1 X66.757 Y56.496 E16.46558
G1 X66.362 Y56.142 E16.52923
G1 X66.18 Y56.065 E16.55295
G1 X66.179 Y56.064 E16.55312
G0 F3600 X66.86 Y57.014
G0 X66.872 Y57.948
G0 X66.305 Y58.695
G0 X59.993 Y59.012
G0 X54.4 Y58.938
G0 X53.534 Y58.572
G0 X53.078 Y57.755
G0 X53.222 Y56.826
G0 X53.927 Y56.114
G0 X54.003 Y56.403
;TYPE:WALL-OUTER
G1 F1800 X53.676 Y56.625 E16.60055
G1 X53.437 Y56.939 E16.6479
G1 X53.313 Y57.315 E16.69541
G1 X53.317 Y57.711 E16.74293
G1 X53.451 Y58.083 E16.79038
G1 X53.697 Y58.393 E16.83787
G1 X54.031 Y58.605 E16.88534
G1 X54.415 Y58.697 E16.93273
G1 X54.809 Y58.66 E16.98021
G1 X55.17 Y58.495 E17.02785
G1 X55.457 Y58.225 E17.07513
G1 X55.642 Y57.874 E17.12274
G1 X55.679 Y57.635 E17.15176
G1 X55.702 Y57.483 E17.17021
G1 X55.689 Y57.406 E17.17958
G1 X55.646 Y57.172 E17.20813
G1 X55.831 Y57.335 E17.21567
G1 X55.873 Y57.372
G1 X56.001 Y57.457 E17.2341
G1 X56.604 Y57.859 E17.32107
G1 X57.403 Y58.256 E17.42813
G1 X58.242 Y58.541 E17.53446
G1 X59.111 Y58.714 E17.64079
G1 X59.992 Y58.772 E17.74674
G1 X60.875 Y58.718 E17.8529
G1 X61.747 Y58.545 E17.95958
G1 X62.586 Y58.261 E18.06587
G1 X63.382 Y57.869 E18.17234
G1 X64.096 Y57.394 E18.27525
G1 X64.102 Y57.39 E18.27612
G1 X64.118 Y57.379 E18.27845
G1 X64.259 Y57.255 E18.30098
G1 X64.362 Y57.165 E18.31739
G1 X64.313 Y57.315 E18.32091
G1 X64.313 Y57.377
G1 X64.317 Y57.711 E18.35096
G1 X64.319 Y57.718 E18.35182
G1 X64.451 Y58.083 E18.3984
G1 X64.697 Y58.393 E18.44589
G1 X65.031 Y58.605 E18.49336
G1 X65.415 Y58.697 E18.54074
G1 X65.809 Y58.66 E18.58823
G1 X66.17 Y58.495 E18.63586
G1 X66.457 Y58.225 E18.68314
G1 X66.642 Y57.874 E18.73076
G1 X66.702 Y57.483 E18.77823
G1 X66.632 Y57.095 E18.82554
G1 X66.44 Y56.749 E18.87302
G1 X66.145 Y56.484 E18.92061
G1 X65.78 Y56.33 E18.96815
G1 X65.577 Y56.315 E18.99257
G1 X65.386 Y56.302 E19.01555
G1 X65.167 Y56.36 E19.04273
G1 X65.29 Y56.219 E19.04521
G1 X65.373 Y56.125 E19.05558
G1 X65.479 Y55.967 E19.07289
G1 X65.861 Y55.395 E19.15542
G1 X66.258 Y54.595 E19.2626
G1 X66.543 Y53.756 E19.36893
G1 X66.716 Y52.887 E19.47525
G1 X66.774 Y52.003 E19.58156
G1 X66.72 Y51.12 E19.68772
G1 X66.547 Y50.25 E19.79416
G1 X66.263 Y49.412 E19.90034
G1 X65.871 Y48.616 E20.00681
G1 X65.478 Y48.029 E20.09158
G1 X65.38 Y47.881 E20.11288
G1 X65.304 Y47.794 E20.12675
G1 X65.168 Y47.638 E20.15158
G1 X65.415 Y47.697 E20.16048
G1 X65.592 Y47.681 E20.17691
G1 X65.809 Y47.66 E20.20307
G1 X66.17 Y47.495 E20.2507
G1 X66.457 Y47.225 E20.29799
G1 X66.642 Y46.874 E20.3456
G1 X66.702 Y46.483 E20.39307
G1 X66.632 Y46.095 E20.44038
G1 X66.44 Y45.749 E20.48786
G1 X66.145 Y45.484 E20.53545
G1 X65.78 Y45.33 E20.58299
G1 X65.386 Y45.302 E20.63039
G1 X65.003 Y45.403 E20.67792
G1 X64.676 Y45.625 E20.72535
G1 X64.437 Y45.939 E20.7727
G1 X64.32 Y46.292 E20.81733
G1 X64.313 Y46.315 E20.82021
G1 X64.316 Y46.623 E20.85717
G1 X64.317 Y46.711 E20.86773
G1 X64.36 Y46.83 E20.88292
G1 X64.277 Y46.757 E20.88341
G1 X64.127 Y46.625 E20.89635
G1 X64.113 Y46.616
G1 X64.093 Y46.603 E20.8991
G1 X63.396 Y46.137 E20.99971
G1 X62.597 Y45.741 E21.10672
G1 X61.758 Y45.455 E21.21309
G1 X60.889 Y45.282 E21.31942
G1 X60.008 Y45.224 E21.42536
G1 X59.125 Y45.278 E21.53152
G1 X58.253 Y45.451 E21.6382
G1 X57.414 Y45.736 E21.74453
G1 X56.618 Y46.127 E21.85095
G1 X55.992 Y46.545 E21.94128
G1 X55.882 Y46.618 E21.95712
G1 X55.847 Y46.648 E21.96266
G1 X55.65 Y46.82 E21.99404
G1 X55.685 Y46.588 E22.00023
G1 X55.702 Y46.483 E22.00386
G1 X55.679 Y46.353 E22.0197
G1 X55.632 Y46.095 E22.05117
G1 X55.44 Y45.749 E22.09865
G1 X55.145 Y45.484 E22.14624
G1 X54.78 Y45.33 E22.19378
G1 X54.386 Y45.302 E22.24118
G1 X54.003 Y45.403 E22.28871
G1 X53.676 Y45.625 E22.33614
G1 X53.437 Y45.939 E22.38349
G1 X53.313 Y46.315 E22.431
G1 X53.317 Y46.711 E22.47852
G1 X53.451 Y47.083 E22.52597
G1 X53.697 Y47.393 E22.57346
G1 X54.031 Y47.605 E22.62093
G1 X54.328 Y47.676 E22.65758
G1 X54.415 Y47.697 E22.66832
G1 X54.608 Y47.679 E22.69158
G1 X54.809 Y47.66 E22.7158
G1 X54.816 Y47.657 E22.71672
G1 X54.627 Y47.872 E22.73048
G1 X54.577 Y47.946 E22.73982
G1 X54.139 Y48.602 E22.83447
G1 X53.742 Y49.401 E22.94153
G1 X53.457 Y50.24 E23.04786
G1 X53.284 Y51.109 E23.15419
G1 X53.226 Y51.993 E23.2605
G1 X53.28 Y52.876 E23.36666
G1 X53.453 Y53.746 E23.4731
G1 X53.737 Y54.584 E23.57928
G1 X54.129 Y55.381 E23.68586
G1 X54.581 Y56.057 E23.78344
G1 X54.62 Y56.116 E23.79193
G1 X54.795 Y56.316 E23.82382
G1 X54.823 Y56.348 E23.82892
G1 X54.78 Y56.33
G1 X54.606 Y56.318 E23.83212
G1 X54.386 Y56.302 E23.85363
G1 X54.318 Y56.32 E23.86207
G1 X54.003 Y56.403 E23.90116
G0 F3600 X53.838 Y56.515
G0 X53.67 Y56.267
G0 X53.041 Y52.907
G0 X52.986 Y51.992
G0 X53.074 Y46.278
G0 X53.454 Y45.521
G0 X57.257 Y42.903
G0 X57.171 Y42.616
G1 F1800 X57.68 Y42.477 E23.96448
G1 X58.182 Y42.368 E24.02612
G1 X58.694 Y42.286 E24.08835
G1 X59.214 Y42.23 E24.15111
G1 X59.745 Y42.202 E24.21491
G1 X60.255 Y42.202 E24.27611
G1 X60.786 Y42.23 E24.33992
G1 X61.306 Y42.286 E24.40268
G1 X61.818 Y42.368 E24.46491
G1 X62.32 Y42.477 E24.52655
G1 X62.829 Y42.616 E24.58987
G1 X63.329 Y42.781 E24.65305
G1 X63.805 Y42.967 E24.71438
G1 X64.29 Y43.187 E24.77828
G1 X64.744 Y43.423 E24.83968
G1 X65.194 Y43.688 E24.90235
G1 X65.638 Y43.982 E24.96625
G1 X66.047 Y44.287 E25.02748
G1 X66.449 Y44.62 E25.09012
G1 X66.84 Y44.981 E25.15398
G1 X67.197 Y45.347 E25.21533
G1 X67.547 Y45.748 E25.2792
G1 X67.863 Y46.15 E25.34056
G1 X68.163 Y46.576 E25.40309
G1 X68.446 Y47.028 E25.46708
G1 X68.699 Y47.484 E25.52966
G1 X68.922 Y47.944 E25.591
G1 X69.125 Y48.425 E25.65365
G1 X69.306 Y48.925 E25.71746
G1 X69.454 Y49.414 E25.77877
G1 X69.578 Y49.921 E25.84141
G1 X69.676 Y50.445 E25.90538
G1 X69.744 Y50.951 E25.96664
G1 X69.786 Y51.471 E26.02925
G1 X69.8 Y51.998 E26.09251
G1 X69.8 Y68.948 E28.12651
G1 X50.2 Y68.948 E30.47851
G1 X50.2 Y52.003 E32.51191
G1 X50.214 Y51.471 E32.57577
G1 X50.255 Y50.961 E32.63717
G1 X50.324 Y50.445 E32.69964
G1 X50.423 Y49.921 E32.76363
G1 X50.543 Y49.425 E32.82487
G1 X50.694 Y48.925 E32.88755
G1 X50.871 Y48.435 E32.95006
G1 X51.074 Y47.953 E33.01282
G1 X51.301 Y47.484 E33.07535
G1 X51.554 Y47.028 E33.13793
G1 X51.831 Y46.585 E33.20062
G1 X52.137 Y46.15 E33.26445
G1 X52.453 Y45.748 E33.32581
G1 X52.803 Y45.347 E33.38968
G1 X53.16 Y44.981 E33.45103
G1 X53.543 Y44.627 E33.51362
G1 X53.953 Y44.287 E33.57753
G1 X54.362 Y43.982 E33.63876
G1 X54.798 Y43.693 E33.70153
G1 X55.256 Y43.423 E33.76533
G1 X55.71 Y43.187 E33.82673
G1 X56.195 Y42.967 E33.89063
G1 X56.671 Y42.781 E33.95196
G1 X57.171 Y42.616 E34.01514
G0 F3600 X57.364 Y42.564
G0 X57.395 Y43.374
;TYPE:SKIN
G1 F1800 X57.866 Y43.245 E34.07374
G1 X58.327 Y43.146 E34.13033
G1 X58.793 Y43.071 E34.18697
G1 X59.283 Y43.018 E34.24611
G1 X59.768 Y42.992 E34.30439
G1 X60.232 Y42.992 E34.36007
G1 X60.717 Y43.018 E34.41836
G1 X61.207 Y43.071 E34.4775
G1 X61.673 Y43.146 E34.53414
G1 X62.134 Y43.245 E34.59072
G1 X62.605 Y43.374 E34.64932
G1 X63.051 Y43.521 E34.70567
G1 X63.517 Y43.703 E34.76571
G1 X63.942 Y43.896 E34.82172
G1 X64.347 Y44.107 E34.87652
G1 X64.771 Y44.357 E34.93558
G1 X65.085 Y44.564 E34.98072
G1 X64.671 Y44.674 E35.03212
G1 X64.126 Y45.044 E35.11117
G1 X63.807 Y45.462 E35.17427
G1 X63.792 Y45.452 E35.17643
G1 X62.901 Y45.01 E35.29578
G1 X61.963 Y44.69 E35.41471
G1 X60.992 Y44.497 E35.53351
G1 X60.011 Y44.433 E35.65148
G1 X59.024 Y44.492 E35.77013
G1 X58.048 Y44.686 E35.88954
G1 X57.111 Y45.005 E36.00832
G1 X56.223 Y45.441 E36.12703
G1 X56.186 Y45.466 E36.13239
G1 X56.067 Y45.25 E36.16198
G1 X55.574 Y44.808 E36.24144
G1 X54.966 Y44.552 E36.3206
G1 X54.933 Y44.55 E36.32457
G1 X55.199 Y44.374 E36.36285
G1 X55.649 Y44.109 E36.42551
G1 X56.058 Y43.896 E36.48085
G1 X56.483 Y43.703 E36.53686
G1 X56.949 Y43.521 E36.5969
G1 X57.395 Y43.374 E36.65325
G0 F3600 X55.637 Y44.324
G1 F1800 X56.444 Y45.13 E36.79012
G0 F3600 X56.823 Y44.944
G1 F1800 X56.005 Y44.126 E36.92893
G0 F3600 X56.388 Y43.943
G1 F1800 X57.221 Y44.776 E37.0703
G0 F3600 X57.643 Y44.632
G1 F1800 X56.788 Y43.777 E37.2154
G0 F3600 X57.203 Y43.627
G1 F1800 X58.073 Y44.496 E37.36296
G0 F3600 X58.544 Y44.402
G1 F1800 X57.636 Y43.494 E37.51705
G0 F3600 X58.089 Y43.381
G1 F1800 X59.019 Y44.311 E37.67488
G0 F3600 X59.553 Y44.279
G1 F1800 X58.563 Y43.289 E37.84288
G0 F3600 X59.062 Y43.223
G1 F1800 X60.097 Y44.257 E38.01845
G0 F3600 X60.702 Y44.297
G1 F1800 X59.587 Y43.182 E38.20767
G0 F3600 X60.142 Y43.171
G1 F1800 X61.356 Y44.385 E38.41369
G0 F3600 X62.074 Y44.537
G1 F1800 X60.738 Y43.202 E38.64033
G0 F3600 X61.383 Y43.281
G1 F1800 X62.931 Y44.829 E38.90304
G1 X63.001 Y44.899
G0 F3600 X63.818 Y45.15
G1 F1800 X62.088 Y43.42 E39.19663
G1 X62.018 Y43.35
G0 F3600 X62.892 Y43.659
G1 F1800 X64.085 Y44.852 E39.39909
G0 F3600 X64.423 Y44.624
G1 F1800 X63.852 Y44.053 E39.49599
G1 X63.782 Y43.983
G0 F3600 X66.276 Y45.282
G0 X67.435 Y46.914
G1 F1800 X67.504 Y47.013 E39.51047
G1 X67.76 Y47.42 E39.56817
G1 X68.003 Y47.858 E39.62827
G1 X68.194 Y48.252 E39.68082
G1 X68.389 Y48.714 E39.74099
G1 X68.556 Y49.174 E39.79972
G1 X68.686 Y49.602 E39.85339
G1 X68.805 Y50.088 E39.91344
G1 X68.899 Y50.591 E39.97484
G1 X68.957 Y51.014 E40.02608
G1 X68.997 Y51.513 E40.08615
G1 X69.01 Y51.998 E40.14437
G1 X69.01 Y68.158 E42.08357
G1 X50.99 Y68.158 E44.24597
G1 X50.99 Y52.024 E46.18205
G1 X51.003 Y51.513 E46.24339
G1 X51.04 Y51.044 E46.29984
G1 X51.101 Y50.591 E46.35469
G1 X51.197 Y50.081 E46.41697
G1 X51.305 Y49.633 E46.47227
G1 X51.444 Y49.173 E46.52993
G1 X51.599 Y48.742 E46.5849
G1 X51.794 Y48.278 E46.64529
G1 X51.997 Y47.858 E46.70127
G1 X52.235 Y47.429 E46.76014
G1 X52.49 Y47.021 E46.81788
G1 X52.555 Y46.928 E46.8315
G1 X52.752 Y47.473 E46.90104
G1 X53.161 Y47.989 E46.98005
G1 X53.468 Y48.183 E47.02363
G1 X53.454 Y48.204 E47.02666
G1 X53.011 Y49.097 E47.14628
G1 X52.692 Y50.035 E47.26517
G1 X52.499 Y51.006 E47.38397
G1 X52.435 Y51.99 E47.5023
G1 X52.494 Y52.977 E47.62095
G1 X52.688 Y53.951 E47.74013
G1 X53.006 Y54.887 E47.85875
G1 X53.443 Y55.776 E47.97762
G1 X53.467 Y55.812 E47.98282
G1 X53.126 Y56.044 E48.03231
G1 X52.729 Y56.566 E48.11101
G1 X52.522 Y57.192 E48.19013
G1 X52.528 Y57.853 E48.26945
G1 X52.752 Y58.473 E48.34856
G1 X53.161 Y58.989 E48.42757
